%
O01023
(Using high feed G1 F140. instead of G0.)
(Multiple tools disallowed.  Please ensure the tool in the spindle is T1)
(Machine)
(  vendor: HAAS)
(  model: Desktop Mill)
(  description: Haas Desktop Mill)
(T1 D=0.125 CR=0. - ZMIN=-0.1575 - flat end mill)
N10 G90 G94 G17
N15 G20
N20 G53 G0 Z0.

(Flat1)
N25 S5000 M3
N30 G17 G90 G94
N35 G54
N40 G1 X-2.4428 Y2.2604 F140.
N45 G0 G43 Z0.5906
N50 G0 Z-0.1046
N55 G1 Z-0.1439 F13.123
N60 X-2.4427 Z-0.145 F39.37
N65 X-2.4423 Z-0.1478
N70 X-2.4415 Y2.2609 Z-0.1504
N75 X-2.4404 Y2.2619 Z-0.1528
N80 X-2.4389 Y2.2632 Z-0.1548
N85 X-2.4372 Y2.2649 Z-0.1562
N90 X-2.4353 Y2.2668 Z-0.1572
N95 X-2.4334 Y2.2688 Z-0.1575
N100 X-2.4249 Y2.2779
N105 X-2.2881 Y2.4249
N110 X-2.2795 Y2.434
N115 X-2.2777 Y2.4361 Z-0.1572
N120 X-2.2759 Y2.4381 Z-0.1562
N125 X-2.2744 Y2.4399 Z-0.1548
N130 X-2.2732 Y2.4415 Z-0.1528
N135 X-2.2723 Y2.4427 Z-0.1504
N140 X-2.2719 Y2.4435 Z-0.1478
N145 X-2.2718 Y2.4439 Z-0.145
N150 X-2.2719 Y2.444 Z-0.1439
N155 G0 Z0.1969
N160 G1 X-2.4428 Y2.132 F140.
N165 G0 Z-0.1046
N170 G1 Z-0.1439 F13.123
N175 X-2.4427 Z-0.145 F39.37
N180 X-2.4423 Z-0.1478
N185 X-2.4415 Y2.1325 Z-0.1504
N190 X-2.4404 Y2.1335 Z-0.1528
N195 X-2.4389 Y2.1348 Z-0.1548
N200 X-2.4372 Y2.1365 Z-0.1562
N205 X-2.4353 Y2.1383 Z-0.1572
N210 X-2.4334 Y2.1404 Z-0.1575
N215 X-2.4249 Y2.1495
N220 X-2.1685 Y2.4249
N225 X-2.16 Y2.434
N230 X-2.1581 Y2.4361 Z-0.1572
N235 X-2.1564 Y2.4381 Z-0.1562
N240 X-2.1549 Y2.4399 Z-0.1548
N245 X-2.1536 Y2.4415 Z-0.1528
N250 X-2.1528 Y2.4427 Z-0.1504
N255 X-2.1523 Y2.4435 Z-0.1478
N260 Y2.4439 Z-0.145
N265 Y2.444 Z-0.1439
N270 G0 Z0.1969
N275 G1 X-2.4428 Y2.0036 F140.
N280 G0 Z-0.1046
N285 G1 Z-0.1439 F13.123
N290 X-2.4427 Y2.0035 Z-0.145 F39.37
N295 X-2.4423 Y2.0036 Z-0.1478
N300 X-2.4415 Y2.0041 Z-0.1504
N305 X-2.4404 Y2.0051 Z-0.1528
N310 X-2.4389 Y2.0064 Z-0.1548
N315 X-2.4372 Y2.0081 Z-0.1562
N320 X-2.4353 Y2.0099 Z-0.1572
N325 X-2.4334 Y2.0119 Z-0.1575
N330 X-2.4249 Y2.0211
N335 X-2.049 Y2.4249
N340 X-2.0404 Y2.434
N345 X-2.0386 Y2.4361 Z-0.1572
N350 X-2.0368 Y2.4381 Z-0.1562
N355 X-2.0353 Y2.4399 Z-0.1548
N360 X-2.0341 Y2.4415 Z-0.1528
N365 X-2.0332 Y2.4427 Z-0.1504
N370 X-2.0328 Y2.4435 Z-0.1478
N375 X-2.0327 Y2.4439 Z-0.145
N380 X-2.0328 Y2.444 Z-0.1439
N385 G0 Z0.1969
N390 G1 X-2.4426 Y1.8734 F140.
N395 G0 Z-0.1046
N400 G1 Z-0.1439 F13.123
N405 X-2.4425 Z-0.145 F39.37
N410 X-2.4421 Z-0.1478
N415 X-2.4413 Y1.874 Z-0.1504
N420 X-2.4402 Y1.8749 Z-0.1528
N425 X-2.4387 Y1.8763 Z-0.1548
N430 X-2.437 Y1.8779 Z-0.1562
N435 X-2.4352 Y1.8798 Z-0.1572
N440 X-2.4333 Y1.8819 Z-0.1575
N445 X-2.4249 Y1.8911
N450 X-2.2445 Y2.0893
N455 X-1.9288 Y2.4249
N460 X-1.9203 Y2.434
N465 X-1.9184 Y2.436 Z-0.1572
N470 X-1.9166 Y2.438 Z-0.1562
N475 X-1.9151 Y2.4398 Z-0.1548
N480 X-1.9139 Y2.4414 Z-0.1528
N485 X-1.913 Y2.4426 Z-0.1504
N490 X-1.9125 Y2.4435 Z-0.1478
N495 Y2.4439 Z-0.145
N500 Z-0.1439
N505 G0 Z0.1969
N510 G1 X-2.4419 Y1.737 F140.
N515 G0 Z-0.1046
N520 G1 Z-0.1439 F13.123
N525 X-2.4418 Y1.7369 Z-0.145 F39.37
N530 X-2.4415 Y1.737 Z-0.1478
N535 X-2.4407 Y1.7376 Z-0.1504
N540 X-2.4396 Y1.7386 Z-0.1528
N545 X-2.4382 Y1.74 Z-0.1548
N550 X-2.4365 Y1.7417 Z-0.1562
N555 X-2.4348 Y1.7437 Z-0.1572
N560 X-2.433 Y1.7458 Z-0.1575
N565 X-2.4249 Y1.7554
N570 X-2.2772 Y1.9306
N575 G2 X-2.1327 Y2.09 I2.2983 J-1.9373
N580 G1 X-1.8067 Y2.4249
N585 X-1.798 Y2.4339
N590 X-1.7961 Y2.4359 Z-0.1572
N595 X-1.7943 Y2.4378 Z-0.1562
N600 X-1.7927 Y2.4396 Z-0.1548
N605 X-1.7915 Y2.4411 Z-0.1528
N610 X-1.7906 Y2.4424 Z-0.1504
N615 X-1.7901 Y2.4432 Z-0.1478
N620 Y2.4436 Z-0.145
N625 Z-0.1439
N630 G0 Z0.1969
N635 G1 X-2.4411 Y1.5933 F140.
N640 G0 Z-0.1046
N645 G1 Z-0.1439 F13.123
N650 Z-0.145 F39.37
N655 X-2.4407 Y1.5934 Z-0.1478
N660 X-2.4399 Y1.594 Z-0.1504
N665 X-2.4389 Y1.5951 Z-0.1528
N670 X-2.4375 Y1.5965 Z-0.1548
N675 X-2.436 Y1.5983 Z-0.1562
N680 X-2.4343 Y1.6004 Z-0.1572
N685 X-2.4325 Y1.6025 Z-0.1575
N690 X-2.4249 Y1.6124
N695 X-2.2921 Y1.784
N700 G2 X-2.0429 Y2.0663 I2.3131 J-1.7906
N705 G1 X-1.6827 Y2.4249
N710 X-1.6738 Y2.4337
N715 X-1.6719 Y2.4357 Z-0.1572
N720 X-1.6701 Y2.4376 Z-0.1562
N725 X-1.6685 Y2.4394 Z-0.1548
N730 X-1.6672 Y2.4409 Z-0.1528
N735 X-1.6663 Y2.4421 Z-0.1504
N740 X-1.6658 Y2.4429 Z-0.1478
N745 Y2.4433 Z-0.145
N750 Z-0.1439
N755 G0 Z0.1969
N760 G1 X-2.4402 Y1.4403 F140.
N765 G0 Z-0.1046
N770 G1 Z-0.1439 F13.123
N775 Z-0.145 F39.37
N780 X-2.4398 Y1.4404 Z-0.1478
N785 X-2.4391 Y1.4411 Z-0.1504
N790 X-2.438 Y1.4422 Z-0.1528
N795 X-2.4368 Y1.4437 Z-0.1548
N800 X-2.4353 Y1.4455 Z-0.1562
N805 X-2.4337 Y1.4477 Z-0.1572
N810 X-2.4321 Y1.4499 Z-0.1575
N815 X-2.4249 Y1.4602
N820 X-2.307 Y1.628
N825 G2 X-1.968 Y2.027 I2.3281 J-1.6347
N830 G1 X-1.6691 Y2.3193
N835 G2 X-1.6236 Y2.3602 I0.512 J-0.5235
N840 G1 X-1.5454 Y2.4249
N845 X-1.5357 Y2.4329
N850 X-1.5336 Y2.4347 Z-0.1572
N855 X-1.5316 Y2.4364 Z-0.1562
N860 X-1.5299 Y2.438 Z-0.1548
N865 X-1.5285 Y2.4394 Z-0.1528
N870 X-1.5275 Y2.4405 Z-0.1504
N875 X-1.5269 Y2.4413 Z-0.1478
N880 X-1.5268 Y2.4417 Z-0.145
N885 Z-0.1439
N890 G0 Z0.1969
N895 G1 X-2.4391 Y1.2743 F140.
N900 G0 Z-0.1046
N905 G1 Z-0.1439 F13.123
N910 Z-0.145 F39.37
N915 X-2.4387 Y1.2744 Z-0.1478
N920 X-2.438 Y1.2751 Z-0.1504
N925 X-2.437 Y1.2762 Z-0.1528
N930 X-2.4358 Y1.2778 Z-0.1548
N935 X-2.4345 Y1.2798 Z-0.1562
N940 X-2.433 Y1.282 Z-0.1572
N945 X-2.4315 Y1.2843 Z-0.1575
N950 X-2.4249 Y1.2949
N955 X-2.3237 Y1.4571
N960 G2 X-1.9119 Y1.9691 I2.3447 J-1.4638
N965 G1 X-1.6137 Y2.2609
N970 G2 X-1.4322 Y2.3869 I0.4631 J-0.4733
N975 G1 X-1.3513 Y2.4249
N980 X-1.34 Y2.4302
N985 X-1.3375 Y2.4314 Z-0.1572
N990 X-1.3352 Y2.4326 Z-0.1562
N995 X-1.3331 Y2.4337 Z-0.1548
N1000 X-1.3314 Y2.4347 Z-0.1528
N1005 X-1.3301 Y2.4356 Z-0.1504
N1010 X-1.3294 Y2.4362 Z-0.1478
N1015 X-1.3292 Y2.4365 Z-0.145
N1020 Y2.4366 Z-0.1439
N1025 G0 Z0.1969
N1030 G1 X-0.962 Y2.4365 F140.
N1035 G0 Z-0.1046
N1040 G1 Z-0.1439 F13.123
N1045 Y2.4364 Z-0.145 F39.37
N1050 X-0.9618 Y2.4361 Z-0.1478
N1055 X-0.9611 Y2.4355 Z-0.1504
N1060 X-0.9598 Y2.4347 Z-0.1528
N1065 X-0.9581 Y2.4337 Z-0.1548
N1070 X-0.956 Y2.4326 Z-0.1562
N1075 X-0.9536 Y2.4314 Z-0.1572
N1080 X-0.9511 Y2.4302 Z-0.1575
N1085 X-0.9398 Y2.4249
N1090 X-0.8503 Y2.3832
N1095 X-0.8332 Y2.3747
N1100 X-0.7514 Y2.3322
N1105 G3 X-0.7224 Y2.3365 I0.0115 J0.0222
N1110 G1 X-0.632 Y2.4249
N1115 X-0.623 Y2.4336
N1120 X-0.6211 Y2.4356 Z-0.1572
N1125 X-0.6192 Y2.4375 Z-0.1562
N1130 X-0.6176 Y2.4393 Z-0.1548
N1135 X-0.6163 Y2.4408 Z-0.1528
N1140 X-0.6154 Y2.4419 Z-0.1504
N1145 X-0.6149 Y2.4428 Z-0.1478
N1150 X-0.6148 Y2.4431 Z-0.145
N1155 X-0.6149 Y2.4432 Z-0.1439
N1160 G0 Z0.1969
N1165 G1 X-2.4381 Y1.1203 F140.
N1170 G0 Z-0.1046
N1175 G1 Z-0.1439 F13.123
N1180 Z-0.145 F39.37
N1185 X-2.4377 Y1.1204 Z-0.1478
N1190 X-2.4371 Y1.1211 Z-0.1504
N1195 X-2.4361 Y1.1223 Z-0.1528
N1200 X-2.435 Y1.124 Z-0.1548
N1205 X-2.4338 Y1.126 Z-0.1562
N1210 X-2.4324 Y1.1282 Z-0.1572
N1215 X-2.431 Y1.1306 Z-0.1575
N1220 X-2.4249 Y1.1415
N1225 X-2.3299 Y1.3111
N1230 G2 X-1.8639 Y1.9195 I2.3509 J-1.3178
N1235 G1 X-1.5658 Y2.2112
N1240 G2 X-1.1015 Y2.379 I0.4162 J-0.4253
N1245 G1 X-1.0906 Y2.3782
N1250 G2 X-0.7603 Y2.2442 I-0.048 J-0.5924
N1255 G1 X-0.7501 Y2.2358
N1260 G3 X-0.7167 Y2.2372 I0.0159 J0.0193
N1265 G1 X-0.5247 Y2.4249
N1270 X-0.5157 Y2.4336
N1275 X-0.5138 Y2.4356 Z-0.1572
N1280 X-0.5119 Y2.4375 Z-0.1562
N1285 X-0.5103 Y2.4393 Z-0.1548
N1290 X-0.509 Y2.4408 Z-0.1528
N1295 X-0.5081 Y2.4419 Z-0.1504
N1300 X-0.5076 Y2.4428 Z-0.1478
N1305 X-0.5075 Y2.4431 Z-0.145
N1310 X-0.5076 Y2.4432 Z-0.1439
N1315 G0 Z0.1969
N1320 G1 X-2.4365 Y0.9133 F140.
N1325 G0 Z-0.1046
N1330 G1 Z-0.1439 F13.123
N1335 Z-0.145 F39.37
N1340 X-2.4361 Y0.9135 Z-0.1478
N1345 X-2.4355 Y0.9142 Z-0.1504
N1350 X-2.4347 Y0.9155 Z-0.1528
N1355 X-2.4337 Y0.9172 Z-0.1548
N1360 X-2.4326 Y0.9193 Z-0.1562
N1365 X-2.4314 Y0.9217 Z-0.1572
N1370 X-2.4302 Y0.9242 Z-0.1575
N1375 X-2.4249 Y0.9355
N1380 X-2.3463 Y1.103
N1385 G2 X-1.7506 Y1.9161 I2.3704 J-1.1119
N1390 G1 X-1.4761 Y2.1692
N1395 G2 X-1.0048 Y2.2787 I0.3321 J-0.3602
N1400 G1 X-0.9969 Y2.2764
N1405 G2 X-0.7632 Y2.1232 I-0.1378 J-0.4652
N1410 G1 X-0.7558 Y2.1144
N1415 G3 X-0.7192 Y2.1126 I0.0191 J0.0161
N1420 G1 X-0.3994 Y2.4249
N1425 X-0.3905 Y2.4336
N1430 X-0.3885 Y2.4356 Z-0.1572
N1435 X-0.3867 Y2.4375 Z-0.1562
N1440 X-0.3851 Y2.4392 Z-0.1548
N1445 X-0.3838 Y2.4408 Z-0.1528
N1450 X-0.3829 Y2.4419 Z-0.1504
N1455 X-0.3824 Y2.4428 Z-0.1478
N1460 X-0.3823 Y2.4431 Z-0.145
N1465 Y2.4432 Z-0.1439
N1470 G0 Z0.1969
N1475 G1 X-2.4345 Y0.6768 F140.
N1480 G0 Z-0.1046
N1485 G1 Z-0.1439 F13.123
N1490 Y0.6767 Z-0.145 F39.37
N1495 X-2.4342 Y0.6769 Z-0.1478
N1500 X-2.4336 Y0.6777 Z-0.1504
N1505 X-2.4329 Y0.6791 Z-0.1528
N1510 X-2.4321 Y0.6809 Z-0.1548
N1515 X-2.4311 Y0.683 Z-0.1562
N1520 X-2.4302 Y0.6855 Z-0.1572
N1525 X-2.4292 Y0.6881 Z-0.1575
N1530 X-2.4249 Y0.6998
N1535 X-2.3656 Y0.8624
N1540 G2 X-2.3296 Y0.955 I2.2789 J-0.8316
N1545 G1 X-2.3275 Y0.9601
N1550 G2 X-1.6382 Y1.9161 I2.3516 J-0.9691
N1555 G1 X-1.3968 Y2.1246
N1560 G2 X-0.9732 Y2.1865 I0.2604 J-0.3016
N1565 G1 X-0.9689 Y2.1845
N1570 G2 X-0.7786 Y2.0023 I-0.1611 J-0.3587
N1575 G1 X-0.7741 Y1.9933
N1580 G3 X-0.7341 Y1.9868 I0.0223 J0.0112
N1585 G1 X-0.4968 Y2.2218
N1590 G2 X-0.4217 Y2.2937 I2.1005 J-2.1204
N1595 G1 X-0.2797 Y2.4249
N1600 X-0.2705 Y2.4334
N1605 X-0.2685 Y2.4353 Z-0.1572
N1610 X-0.2666 Y2.4371 Z-0.1562
N1615 X-0.265 Y2.4388 Z-0.1548
N1620 X-0.2636 Y2.4403 Z-0.1528
N1625 X-0.2627 Y2.4415 Z-0.1504
N1630 X-0.2621 Y2.4423 Z-0.1478
N1635 Y2.4427 Z-0.145
N1640 Z-0.1439
N1645 G0 Z0.1969
N1650 G1 X-2.4315 Y0.3545 F140.
N1655 G0 Z-0.1046
N1660 G1 Z-0.1439 F13.123
N1665 Y0.3544 Z-0.145 F39.37
N1670 X-2.4311 Y0.3547 Z-0.1478
N1675 X-2.4307 Y0.3555 Z-0.1504
N1680 X-2.4302 Y0.357 Z-0.1528
N1685 X-2.4296 Y0.3588 Z-0.1548
N1690 X-2.4289 Y0.3611 Z-0.1562
N1695 X-2.4283 Y0.3637 Z-0.1572
N1700 X-2.4276 Y0.3664 Z-0.1575
N1705 X-2.4249 Y0.3786
N1710 X-2.3884 Y0.5407
N1715 G2 X-2.3211 Y0.7805 I2.3432 J-0.528
N1720 G1 X-2.3199 Y0.7841
N1725 G2 X-2.2658 Y0.9287 I2.2333 J-0.7534
N1730 G1 X-2.2636 Y0.9338
N1735 G2 X-1.544 Y1.9052 I2.2877 J-0.9427
N1740 G1 X-1.3339 Y2.0773
N1745 G2 X-0.8141 Y1.8826 I0.2034 J-0.2483
N1750 G1 X-0.8125 Y1.8733
N1755 G3 X-0.7802 Y1.8607 I0.0199 J0.0034
N1760 G1 X-0.6388 Y1.9706
N1765 X-0.511 Y2.1077
N1770 G2 X-0.3153 Y2.2956 I1.7828 J-1.6607
N1775 G1 X-0.2393 Y2.3609
N1780 G2 X-0.1995 Y2.3906 I0.2359 J-0.2747
N1785 G1 X-0.1463 Y2.4249
N1790 X-0.1358 Y2.4317
N1795 X-0.1334 Y2.4332 Z-0.1572
N1800 X-0.1313 Y2.4347 Z-0.1562
N1805 X-0.1293 Y2.4361 Z-0.1548
N1810 X-0.1278 Y2.4373 Z-0.1528
N1815 X-0.1266 Y2.4383 Z-0.1504
N1820 X-0.126 Y2.439 Z-0.1478
N1825 X-0.1258 Y2.4394 Z-0.145
N1830 X-0.1259 Z-0.1439
N1835 G0 Z0.1969
N1840 G1 X0.6134 Y2.4431 F140.
N1845 G0 Z-0.1046
N1850 G1 Z-0.1439 F13.123
N1855 Z-0.145 F39.37
N1860 X0.6135 Y2.4427 Z-0.1478
N1865 X0.614 Y2.4419 Z-0.1504
N1870 X0.6149 Y2.4407 Z-0.1528
N1875 X0.6162 Y2.4392 Z-0.1548
N1880 X0.6178 Y2.4375 Z-0.1562
N1885 X0.6196 Y2.4356 Z-0.1572
N1890 X0.6216 Y2.4336 Z-0.1575
N1895 X0.6306 Y2.4249
N1900 X0.7249 Y2.3333
N1905 G3 X0.7538 Y2.329 I0.0174 J0.0179
N1910 G1 X0.8343 Y2.3707
N1915 G2 X0.8755 Y2.3902 I0.2929 J-0.5651
N1920 G1 X0.9559 Y2.4249
N1925 X0.9674 Y2.4298
N1930 X0.9699 Y2.431 Z-0.1572
N1935 X0.9723 Y2.4321 Z-0.1562
N1940 X0.9745 Y2.4331 Z-0.1548
N1945 X0.9762 Y2.4341 Z-0.1528
N1950 X0.9775 Y2.4349 Z-0.1504
N1955 X0.9783 Y2.4354 Z-0.1478
N1960 X0.9784 Y2.4358 Z-0.145
N1965 Z-0.1439
N1970 G0 Z0.1969
N1975 G1 X2.2567 Y2.4436 F140.
N1980 G0 Z-0.1046
N1985 G1 Z-0.1439 F13.123
N1990 Y2.4435 Z-0.145 F39.37
N1995 X2.2568 Y2.4432 Z-0.1478
N2000 X2.2572 Y2.4423 Z-0.1504
N2005 X2.2581 Y2.4411 Z-0.1528
N2010 X2.2594 Y2.4396 Z-0.1548
N2015 X2.2609 Y2.4378 Z-0.1562
N2020 X2.2627 Y2.4358 Z-0.1572
N2025 X2.2647 Y2.4338 Z-0.1575
N2030 X2.2734 Y2.4249
N2035 X2.4249 Y2.2697
N2040 X2.4336 Y2.2608
N2045 X2.4356 Y2.2588 Z-0.1572
N2050 X2.4375 Y2.257 Z-0.1562
N2055 X2.4392 Y2.2554 Z-0.1548
N2060 X2.4407 Y2.2541 Z-0.1528
N2065 X2.4419 Y2.2532 Z-0.1504
N2070 X2.4427 Y2.2527 Z-0.1478
N2075 X2.4431 Y2.2526 Z-0.145
N2080 X2.4432 Z-0.1439
N2085 G0 Z0.1969
N2090 G1 X2.1345 Y2.4436 F140.
N2095 G0 Z-0.1046
N2100 G1 Z-0.1439 F13.123
N2105 X2.1344 Y2.4435 Z-0.145 F39.37
N2110 X2.1345 Y2.4432 Z-0.1478
N2115 X2.1349 Y2.4423 Z-0.1504
N2120 X2.1358 Y2.4411 Z-0.1528
N2125 X2.1371 Y2.4396 Z-0.1548
N2130 X2.1387 Y2.4378 Z-0.1562
N2135 X2.1404 Y2.4358 Z-0.1572
N2140 X2.1424 Y2.4338 Z-0.1575
N2145 X2.1511 Y2.4249
N2150 X2.4249 Y2.1445
N2155 X2.4336 Y2.1355
N2160 X2.4356 Y2.1336 Z-0.1572
N2165 X2.4375 Y2.1317 Z-0.1562
N2170 X2.4392 Y2.1301 Z-0.1548
N2175 X2.4407 Y2.1288 Z-0.1528
N2180 X2.4419 Y2.1279 Z-0.1504
N2185 X2.4427 Y2.1274 Z-0.1478
N2190 X2.4431 Y2.1273 Z-0.145
N2195 X2.4432 Y2.1274 Z-0.1439
N2200 G0 Z0.1969
N2205 G1 X2.0122 Y2.4436 F140.
N2210 G0 Z-0.1046
N2215 G1 Z-0.1439 F13.123
N2220 X2.0121 Y2.4435 Z-0.145 F39.37
N2225 X2.0122 Y2.4432 Z-0.1478
N2230 X2.0127 Y2.4423 Z-0.1504
N2235 X2.0135 Y2.4411 Z-0.1528
N2240 X2.0148 Y2.4396 Z-0.1548
N2245 X2.0164 Y2.4378 Z-0.1562
N2250 X2.0182 Y2.4358 Z-0.1572
N2255 X2.0201 Y2.4338 Z-0.1575
N2260 X2.0288 Y2.4249
N2265 X2.4249 Y2.0192
N2270 X2.4336 Y2.0103
N2275 X2.4356 Y2.0083 Z-0.1572
N2280 X2.4375 Y2.0065 Z-0.1562
N2285 X2.4392 Y2.0049 Z-0.1548
N2290 X2.4407 Y2.0036 Z-0.1528
N2295 X2.4419 Y2.0027 Z-0.1504
N2300 X2.4427 Y2.0022 Z-0.1478
N2305 X2.4431 Y2.0021 Z-0.145
N2310 X2.4432 Z-0.1439
N2315 G0 Z0.1969
N2320 G1 X1.8865 Y2.4432 F140.
N2325 G0 Z-0.1046
N2330 G1 Z-0.1439 F13.123
N2335 X1.8864 Y2.4431 Z-0.145 F39.37
N2340 X1.8865 Y2.4427 Z-0.1478
N2345 X1.887 Y2.4419 Z-0.1504
N2350 X1.8879 Y2.4407 Z-0.1528
N2355 X1.8892 Y2.4392 Z-0.1548
N2360 X1.8908 Y2.4375 Z-0.1562
N2365 X1.8926 Y2.4356 Z-0.1572
N2370 X1.8946 Y2.4336 Z-0.1575
N2375 X1.9036 Y2.4249
N2380 X2.134 Y2.1999
N2385 G2 X2.2629 Y2.0667 I-2.2845 J-2.34
N2390 G1 X2.4249 Y1.8896
N2395 X2.4333 Y1.8803
N2400 X2.4352 Y1.8783 Z-0.1572
N2405 X2.4371 Y1.8764 Z-0.1562
N2410 X2.4388 Y1.8747 Z-0.1548
N2415 X2.4402 Y1.8734 Z-0.1528
N2420 X2.4414 Y1.8724 Z-0.1504
N2425 X2.4422 Y1.8719 Z-0.1478
N2430 X2.4426 Y1.8718 Z-0.145
N2435 Y1.8719 Z-0.1439
N2440 G0 Z0.1969
N2445 G1 X1.7575 Y2.4427 F140.
N2450 G0 Z-0.1046
N2455 G1 Z-0.1439 F13.123
N2460 Z-0.145 F39.37
N2465 Y2.4423 Z-0.1478
N2470 X1.758 Y2.4415 Z-0.1504
N2475 X1.759 Y2.4404 Z-0.1528
N2480 X1.7603 Y2.4389 Z-0.1548
N2485 X1.762 Y2.4372 Z-0.1562
N2490 X1.7639 Y2.4353 Z-0.1572
N2495 X1.7659 Y2.4334 Z-0.1575
N2500 X1.775 Y2.4249
N2505 X2.0209 Y2.1964
N2510 G2 X2.2866 Y1.9177 I-2.1714 J-2.3364
N2515 G1 X2.4249 Y1.7539
N2520 X2.433 Y1.7444
N2525 X2.4348 Y1.7423 Z-0.1572
N2530 X2.4365 Y1.7403 Z-0.1562
N2535 X2.4382 Y1.7386 Z-0.1548
N2540 X2.4396 Y1.7372 Z-0.1528
N2545 X2.4407 Y1.7362 Z-0.1504
N2550 X2.4415 Y1.7356 Z-0.1478
N2555 X2.4419 Y1.7355 Z-0.145
N2560 Y1.7356 Z-0.1439
N2565 G0 Z0.1969
N2570 G1 X1.6258 Y2.4424 F140.
N2575 G0 Z-0.1046
N2580 G1 Z-0.1439 F13.123
N2585 X1.6257 Z-0.145 F39.37
N2590 X1.6258 Y2.442 Z-0.1478
N2595 X1.6263 Y2.4412 Z-0.1504
N2600 X1.6273 Y2.44 Z-0.1528
N2605 X1.6287 Y2.4386 Z-0.1548
N2610 X1.6304 Y2.4369 Z-0.1562
N2615 X1.6323 Y2.4351 Z-0.1572
N2620 X1.6343 Y2.4332 Z-0.1575
N2625 X1.6437 Y2.4249
N2630 X1.9338 Y2.1658
N2635 G2 X2.2919 Y1.7825 I-1.9301 J-2.1617
N2640 G1 X2.4249 Y1.6113
N2645 X2.4326 Y1.6015
N2650 X2.4343 Y1.5993 Z-0.1572
N2655 X2.436 Y1.5972 Z-0.1562
N2660 X2.4375 Y1.5955 Z-0.1548
N2665 X2.4389 Y1.594 Z-0.1528
N2670 X2.44 Y1.593 Z-0.1504
N2675 X2.4407 Y1.5924 Z-0.1478
N2680 X2.4411 Y1.5923 Z-0.145
N2685 Z-0.1439
N2690 G0 Z0.1969
N2695 G1 X1.4865 Y2.4416 F140.
N2700 G0 Z-0.1046
N2705 G1 Z-0.1439 F13.123
N2710 X1.4864 Y2.4415 Z-0.145 F39.37
N2715 X1.4865 Y2.4411 Z-0.1478
N2720 X1.4871 Y2.4404 Z-0.1504
N2725 X1.4881 Y2.4393 Z-0.1528
N2730 X1.4895 Y2.4379 Z-0.1548
N2735 X1.4913 Y2.4363 Z-0.1562
N2740 X1.4933 Y2.4346 Z-0.1572
N2745 X1.4954 Y2.4328 Z-0.1575
N2750 X1.5051 Y2.4249
N2755 X1.5893 Y2.3563
N2760 X1.8403 Y2.1406
N2765 G2 X2.3031 Y1.6322 I-1.8366 J-2.1365
N2770 G1 X2.4249 Y1.4595
N2775 X2.4321 Y1.4493
N2780 X2.4337 Y1.4471 Z-0.1572
N2785 X2.4353 Y1.445 Z-0.1562
N2790 X2.4368 Y1.4431 Z-0.1548
N2795 X2.4381 Y1.4416 Z-0.1528
N2800 X2.4391 Y1.4405 Z-0.1504
N2805 X2.4398 Y1.4399 Z-0.1478
N2810 X2.4402 Y1.4397 Z-0.145
N2815 Y1.4398 Z-0.1439
N2820 G0 Z0.1969
N2825 G1 X1.2788 Y2.4358 F140.
N2830 G0 Z-0.1046
N2835 G1 Z-0.1439 F13.123
N2840 Z-0.145 F39.37
N2845 X1.279 Y2.4354 Z-0.1478
N2850 X1.2797 Y2.4349 Z-0.1504
N2855 X1.281 Y2.4341 Z-0.1528
N2860 X1.2828 Y2.4331 Z-0.1548
N2865 X1.2849 Y2.4321 Z-0.1562
N2870 X1.2873 Y2.431 Z-0.1572
N2875 X1.2898 Y2.4298 Z-0.1575
N2880 X1.3013 Y2.4249
N2885 X1.3818 Y2.3902
N2890 G2 X1.5453 Y2.2881 I-0.2521 J-0.5854
N2895 G1 X1.7882 Y2.0792
N2900 G2 X2.2373 Y1.5856 I-1.7845 J-2.0751
N2905 G1 X2.2391 Y1.5831
N2910 G2 X2.3244 Y1.4552 I-2.2198 J-1.5718
N2915 G1 X2.4249 Y1.2947
N2920 X2.4315 Y1.2841
N2925 X2.433 Y1.2818 Z-0.1572
N2930 X2.4345 Y1.2796 Z-0.1562
N2935 X2.4359 Y1.2776 Z-0.1548
N2940 X2.4371 Y1.2761 Z-0.1528
N2945 X2.438 Y1.2749 Z-0.1504
N2950 X2.4387 Y1.2742 Z-0.1478
N2955 X2.4391 Y1.2741 Z-0.145
N2960 Z-0.1439
N2965 G0 Z0.1969
N2970 G1 X0.5058 Y2.4431 F140.
N2975 G0 Z-0.1046
N2980 G1 Z-0.1439 F13.123
N2985 Z-0.145 F39.37
N2990 Y2.4427 Z-0.1478
N2995 X0.5063 Y2.4419 Z-0.1504
N3000 X0.5073 Y2.4407 Z-0.1528
N3005 X0.5086 Y2.4392 Z-0.1548
N3010 X0.5102 Y2.4375 Z-0.1562
N3015 X0.512 Y2.4356 Z-0.1572
N3020 X0.514 Y2.4336 Z-0.1575
N3025 X0.523 Y2.4249
N3030 X0.7196 Y2.2339
N3035 G3 X0.7531 Y2.2326 I0.0174 J0.0179
N3040 G1 X0.763 Y2.2409
N3045 G2 X1.5007 Y2.2354 I0.3656 J-0.438
N3050 G1 X1.7436 Y2.0265
N3055 G2 X2.181 Y1.5457 I-1.7398 J-2.0224
N3060 G1 X2.1827 Y1.5432
N3065 G2 X2.3305 Y1.3096 I-2.1634 J-1.5318
N3070 G1 X2.4249 Y1.1416
N3075 X2.431 Y1.1307
N3080 X2.4324 Y1.1283 Z-0.1572
N3085 X2.4338 Y1.126 Z-0.1562
N3090 X2.435 Y1.124 Z-0.1548
N3095 X2.4362 Y1.1224 Z-0.1528
N3100 X2.4371 Y1.1212 Z-0.1504
N3105 X2.4377 Y1.1205 Z-0.1478
N3110 X2.4381 Y1.1203 Z-0.145
N3115 Z-0.1439
N3120 G0 Z0.1969
N3125 G1 X0.3801 Y2.4431 F140.
N3130 G0 Z-0.1046
N3135 G1 Z-0.1439 F13.123
N3140 Z-0.145 F39.37
N3145 X0.3802 Y2.4427 Z-0.1478
N3150 X0.3807 Y2.4419 Z-0.1504
N3155 X0.3816 Y2.4407 Z-0.1528
N3160 X0.3829 Y2.4392 Z-0.1548
N3165 X0.3845 Y2.4375 Z-0.1562
N3170 X0.3863 Y2.4356 Z-0.1572
N3175 X0.3883 Y2.4336 Z-0.1575
N3180 X0.3973 Y2.4249
N3185 X0.7209 Y2.111
N3190 G3 X0.7561 Y2.1114 I0.0174 J0.0179
N3195 G1 X0.7994 Y2.1555
N3200 G2 X1.4165 Y2.1899 I0.3275 J-0.3217
N3205 G1 X1.6361 Y2.0113
N3210 G2 X2.0825 Y1.5443 I-1.6323 J-2.0072
N3215 G1 X2.0837 Y1.5427
N3220 G2 X2.347 Y1.1017 I-2.0766 J-1.5386
N3225 G1 X2.4249 Y0.9355
N3230 X2.4302 Y0.9242
N3235 X2.4314 Y0.9217 Z-0.1572
N3240 X2.4326 Y0.9193 Z-0.1562
N3245 X2.4337 Y0.9173 Z-0.1548
N3250 X2.4347 Y0.9155 Z-0.1528
N3255 X2.4355 Y0.9143 Z-0.1504
N3260 X2.4361 Y0.9135 Z-0.1478
N3265 X2.4365 Y0.9134 Z-0.145
N3270 Z-0.1439
N3275 G0 Z0.1969
N3280 G1 X0.259 Y2.4426 F140.
N3285 G0 Z-0.1046
N3290 G1 Z-0.1439 F13.123
N3295 Z-0.145 F39.37
N3300 X0.2591 Y2.4422 Z-0.1478
N3305 X0.2596 Y2.4414 Z-0.1504
N3310 X0.2605 Y2.4402 Z-0.1528
N3315 X0.2619 Y2.4387 Z-0.1548
N3320 X0.2636 Y2.4371 Z-0.1562
N3325 X0.2655 Y2.4352 Z-0.1572
N3330 X0.2675 Y2.4333 Z-0.1575
N3335 X0.2767 Y2.4249
N3340 X0.42 Y2.2942
N3345 G2 X0.5058 Y2.2126 I-1.9281 J-2.1136
N3350 G1 X0.7337 Y1.9867
N3355 G3 X0.7728 Y1.9916 I0.0176 J0.0178
N3360 G1 X0.7956 Y2.0296
N3365 G2 X0.8319 Y2.08 I0.3229 J-0.1941
N3370 G1 X0.8346 Y2.0832
N3375 G2 X1.3693 Y2.1319 I0.2923 J-0.2494
N3380 G1 X1.5889 Y1.9533
N3385 G2 X2.0224 Y1.4998 I-1.5851 J-1.9492
N3390 G1 X2.0236 Y1.4982
N3395 G2 X2.3138 Y0.9928 I-2.0165 J-1.494
N3400 G1 X2.3148 Y0.9906
N3405 G2 X2.3652 Y0.8633 I-2.2803 J-0.9774
N3410 G1 X2.4249 Y0.6997
N3415 X2.4292 Y0.6879
N3420 X2.4302 Y0.6853 Z-0.1572
N3425 X2.4311 Y0.6829 Z-0.1562
N3430 X2.4321 Y0.6807 Z-0.1548
N3435 X2.4329 Y0.6789 Z-0.1528
N3440 X2.4336 Y0.6776 Z-0.1504
N3445 X2.4342 Y0.6768 Z-0.1478
N3450 X2.4345 Y0.6766 Z-0.145
N3455 Z-0.1439
N3460 G0 Z0.1969
N3465 G1 X0.1229 Y2.4394 F140.
N3470 G0 Z-0.1046
N3475 G1 Z-0.1439 F13.123
N3480 Z-0.145 F39.37
N3485 X0.123 Y2.439 Z-0.1478
N3490 X0.1236 Y2.4383 Z-0.1504
N3495 X0.1248 Y2.4373 Z-0.1528
N3500 X0.1264 Y2.4361 Z-0.1548
N3505 X0.1283 Y2.4347 Z-0.1562
N3510 X0.1305 Y2.4332 Z-0.1572
N3515 X0.1328 Y2.4317 Z-0.1575
N3520 X0.1433 Y2.4249
N3525 X0.1965 Y2.3906
N3530 G2 X0.2347 Y2.3623 I-0.196 J-0.3043
N3535 G1 X0.3172 Y2.2923
N3540 G2 X0.5168 Y2.1017 I-1.5259 J-1.7981
N3545 G1 X0.6397 Y1.97
N3550 X0.7801 Y1.8601
N3555 G3 X0.8121 Y1.8721 I0.0123 J0.0158
N3560 G1 X0.8157 Y1.8915
N3565 G2 X0.8877 Y2.039 I0.306 J-0.058
N3570 G1 X0.8901 Y2.0417
N3575 G2 X1.3257 Y2.0783 I0.2368 J-0.208
N3580 G1 X1.5453 Y1.8997
N3585 G2 X1.9669 Y1.4587 I-1.5416 J-1.8956
N3590 G1 X1.9681 Y1.4571
N3595 G2 X2.2503 Y0.9656 I-1.961 J-1.4529
N3600 G1 X2.2513 Y0.9634
N3605 G2 X2.2959 Y0.8516 I-2.2167 J-0.9501
N3610 G1 X2.2964 Y0.8503
N3615 G2 X2.3842 Y0.5586 I-2.2803 J-0.8455
N3620 G1 X2.4249 Y0.3787
N3625 X2.4277 Y0.3665
N3630 X2.4283 Y0.3638 Z-0.1572
N3635 X2.429 Y0.3612 Z-0.1562
N3640 X2.4296 Y0.3589 Z-0.1548
N3645 X2.4302 Y0.357 Z-0.1528
N3650 X2.4307 Y0.3556 Z-0.1504
N3655 X2.4312 Y0.3548 Z-0.1478
N3660 X2.4315 Y0.3545 Z-0.145
N3665 Z-0.1439
N3670 G0 Z0.1969
N3675 G1 X2.4434 Y-2.2685 F140.
N3680 G0 Z-0.1046
N3685 G1 Z-0.1439 F13.123
N3690 X2.4433 Y-2.2684 Z-0.145 F39.37
N3695 X2.443 Y-2.2685 Z-0.1478
N3700 X2.4421 Y-2.269 Z-0.1504
N3705 X2.4409 Y-2.2699 Z-0.1528
N3710 X2.4394 Y-2.2712 Z-0.1548
N3715 X2.4376 Y-2.2728 Z-0.1562
N3720 X2.4357 Y-2.2746 Z-0.1572
N3725 X2.4337 Y-2.2765 Z-0.1575
N3730 X2.4249 Y-2.2854
N3735 X2.2854 Y-2.4249
N3740 X2.2765 Y-2.4337
N3745 X2.2746 Y-2.4357 Z-0.1572
N3750 X2.2728 Y-2.4376 Z-0.1562
N3755 X2.2712 Y-2.4394 Z-0.1548
N3760 X2.2699 Y-2.4409 Z-0.1528
N3765 X2.269 Y-2.4421 Z-0.1504
N3770 X2.2685 Y-2.443 Z-0.1478
N3775 Y-2.4433 Z-0.145
N3780 Y-2.4434 Z-0.1439
N3785 G0 Z0.1969
N3790 G1 X2.4434 Y-2.1447 F140.
N3795 G0 Z-0.1046
N3800 G1 Z-0.1439 F13.123
N3805 X2.4433 Z-0.145 F39.37
N3810 X2.443 Z-0.1478
N3815 X2.4421 Y-2.1452 Z-0.1504
N3820 X2.4409 Y-2.1461 Z-0.1528
N3825 X2.4394 Y-2.1474 Z-0.1548
N3830 X2.4376 Y-2.149 Z-0.1562
N3835 X2.4357 Y-2.1508 Z-0.1572
N3840 X2.4337 Y-2.1528 Z-0.1575
N3845 X2.4249 Y-2.1616
N3850 X2.1616 Y-2.4249
N3855 X2.1528 Y-2.4337
N3860 X2.1509 Y-2.4357 Z-0.1572
N3865 X2.149 Y-2.4376 Z-0.1562
N3870 X2.1475 Y-2.4394 Z-0.1548
N3875 X2.1462 Y-2.4409 Z-0.1528
N3880 X2.1453 Y-2.4421 Z-0.1504
N3885 X2.1448 Y-2.443 Z-0.1478
N3890 X2.1447 Y-2.4433 Z-0.145
N3895 X2.1448 Y-2.4434 Z-0.1439
N3900 G0 Z0.1969
N3905 G1 X2.4433 Y-2.0202 F140.
N3910 G0 Z-0.1046
N3915 G1 Z-0.1439 F13.123
N3920 Z-0.145 F39.37
N3925 X2.4429 Z-0.1478
N3930 X2.442 Y-2.0207 Z-0.1504
N3935 X2.4409 Y-2.0216 Z-0.1528
N3940 X2.4393 Y-2.0229 Z-0.1548
N3945 X2.4376 Y-2.0245 Z-0.1562
N3950 X2.4357 Y-2.0263 Z-0.1572
N3955 X2.4337 Y-2.0283 Z-0.1575
N3960 X2.4249 Y-2.0372
N3965 X2.2317 Y-2.2326
N3970 X2.0372 Y-2.4249
N3975 X2.0283 Y-2.4337
N3980 X2.0264 Y-2.4357 Z-0.1572
N3985 X2.0246 Y-2.4376 Z-0.1562
N3990 X2.023 Y-2.4393 Z-0.1548
N3995 X2.0217 Y-2.4409 Z-0.1528
N4000 X2.0208 Y-2.442 Z-0.1504
N4005 X2.0203 Y-2.4429 Z-0.1478
N4010 X2.0202 Y-2.4433 Z-0.145
N4015 Z-0.1439
N4020 G0 Z0.1969
N4025 G1 X2.4427 Y-1.8906 F140.
N4030 G0 Z-0.1046
N4035 G1 Z-0.1439 F13.123
N4040 Z-0.145 F39.37
N4045 X2.4423 Z-0.1478
N4050 X2.4415 Y-1.8912 Z-0.1504
N4055 X2.4403 Y-1.8921 Z-0.1528
N4060 X2.4388 Y-1.8934 Z-0.1548
N4065 X2.4371 Y-1.8951 Z-0.1562
N4070 X2.4353 Y-1.897 Z-0.1572
N4075 X2.4334 Y-1.899 Z-0.1575
N4080 X2.4249 Y-1.9082
N4085 X2.2588 Y-2.088
N4090 G2 X2.0864 Y-2.2604 I-2.2465 J2.0746
N4095 G1 X1.9082 Y-2.4249
N4100 X1.899 Y-2.4334
N4105 X1.897 Y-2.4353 Z-0.1572
N4110 X1.8951 Y-2.4371 Z-0.1562
N4115 X1.8935 Y-2.4388 Z-0.1548
N4120 X1.8921 Y-2.4403 Z-0.1528
N4125 X1.8912 Y-2.4415 Z-0.1504
N4130 X1.8907 Y-2.4423 Z-0.1478
N4135 X1.8906 Y-2.4427 Z-0.145
N4140 Z-0.1439
N4145 G0 Z0.1969
N4150 G1 X2.442 Y-1.7554 F140.
N4155 G0 Z-0.1046
N4160 G1 Z-0.1439 F13.123
N4165 Z-0.145 F39.37
N4170 X2.4416 Z-0.1478
N4175 X2.4408 Y-1.756 Z-0.1504
N4180 X2.4397 Y-1.757 Z-0.1528
N4185 X2.4383 Y-1.7584 Z-0.1548
N4190 X2.4366 Y-1.7601 Z-0.1562
N4195 X2.4349 Y-1.762 Z-0.1572
N4200 X2.433 Y-1.7641 Z-0.1575
N4205 X2.4249 Y-1.7736
N4210 X2.2757 Y-1.9479
N4215 G2 X2.1849 Y-2.0492 I-2.2514 J1.9272
N4220 G1 X2.1829 Y-2.0513
N4225 G2 X1.9486 Y-2.2751 I-2.1706 J2.0378
N4230 G1 X1.7737 Y-2.4249
N4235 X1.7642 Y-2.433
N4240 X1.7621 Y-2.4349 Z-0.1572
N4245 X1.7601 Y-2.4366 Z-0.1562
N4250 X1.7584 Y-2.4383 Z-0.1548
N4255 X1.757 Y-2.4397 Z-0.1528
N4260 X1.756 Y-2.4408 Z-0.1504
N4265 X1.7555 Y-2.4416 Z-0.1478
N4270 X1.7554 Y-2.442 Z-0.145
N4275 Z-0.1439
N4280 G0 Z0.1969
N4285 G1 X2.4413 Y-1.6132 F140.
N4290 G0 Z-0.1046
N4295 G1 Z-0.1439 F13.123
N4300 X2.4412 Z-0.145 F39.37
N4305 X2.4408 Y-1.6133 Z-0.1478
N4310 X2.4401 Y-1.6139 Z-0.1504
N4315 X2.439 Y-1.6149 Z-0.1528
N4320 X2.4376 Y-1.6164 Z-0.1548
N4325 X2.4361 Y-1.6181 Z-0.1562
N4330 X2.4344 Y-1.6202 Z-0.1572
N4335 X2.4326 Y-1.6223 Z-0.1575
N4340 X2.4249 Y-1.6322
N4345 X2.2898 Y-1.8038
N4350 G2 X2.1262 Y-1.994 I-2.2653 J1.7829
N4355 G1 X2.1242 Y-1.9962
N4360 G2 X1.8046 Y-2.2892 I-2.1118 J1.9827
N4365 G1 X1.6323 Y-2.4249
N4370 X1.6224 Y-2.4326
N4375 X1.6203 Y-2.4344 Z-0.1572
N4380 X1.6182 Y-2.4361 Z-0.1562
N4385 X1.6165 Y-2.4376 Z-0.1548
N4390 X1.615 Y-2.439 Z-0.1528
N4395 X1.614 Y-2.4401 Z-0.1504
N4400 X1.6134 Y-2.4408 Z-0.1478
N4405 X1.6133 Y-2.4412 Z-0.145
N4410 Y-2.4413 Z-0.1439
N4415 G0 Z0.1969
N4420 G1 X2.4404 Y-1.4626 F140.
N4425 G0 Z-0.1046
N4430 G1 Z-0.1439 F13.123
N4435 Z-0.145 F39.37
N4440 X2.44 Y-1.4627 Z-0.1478
N4445 X2.4393 Y-1.4633 Z-0.1504
N4450 X2.4382 Y-1.4644 Z-0.1528
N4455 X2.4369 Y-1.4659 Z-0.1548
N4460 X2.4354 Y-1.4677 Z-0.1562
N4465 X2.4338 Y-1.4698 Z-0.1572
N4470 X2.4322 Y-1.4721 Z-0.1575
N4475 X2.4249 Y-1.4822
N4480 X2.2836 Y-1.6789
N4485 G2 X2.0675 Y-1.9389 I-2.2591 J1.658
N4490 G1 X2.0654 Y-1.941
N4495 G2 X1.6536 Y-2.3019 I-2.0531 J1.9276
N4500 G1 X1.4821 Y-2.4249
N4505 X1.472 Y-2.4322
N4510 X1.4697 Y-2.4338 Z-0.1572
N4515 X1.4676 Y-2.4354 Z-0.1562
N4520 X1.4658 Y-2.4369 Z-0.1548
N4525 X1.4643 Y-2.4382 Z-0.1528
N4530 X1.4632 Y-2.4392 Z-0.1504
N4535 X1.4626 Y-2.44 Z-0.1478
N4540 X1.4624 Y-2.4404 Z-0.145
N4545 X1.4625 Z-0.1439
N4550 G0 Z0.1969
N4555 G1 X2.4394 Y-1.2998 F140.
N4560 G0 Z-0.1046
N4565 G1 Z-0.1439 F13.123
N4570 X2.4393 Z-0.145 F39.37
N4575 X2.4389 Y-1.2999 Z-0.1478
N4580 X2.4383 Y-1.3006 Z-0.1504
N4585 X2.4373 Y-1.3017 Z-0.1528
N4590 X2.4361 Y-1.3033 Z-0.1548
N4595 X2.4347 Y-1.3052 Z-0.1562
N4600 X2.4332 Y-1.3074 Z-0.1572
N4605 X2.4316 Y-1.3097 Z-0.1575
N4610 X2.4249 Y-1.3202
N4615 X2.3179 Y-1.4869
N4620 G2 X2.2213 Y-1.6276 I-2.297 J1.4743
N4625 G1 X2.2186 Y-1.6312
N4630 G2 X2.0087 Y-1.8837 I-2.1942 J1.6104
N4635 G1 X2.0067 Y-1.8859
N4640 G2 X1.595 Y-2.2448 I-1.9944 J1.8724
N4645 G1 X1.5892 Y-2.2489
N4650 G2 X1.4849 Y-2.3192 I-1.543 J2.1754
N4655 G1 X1.3199 Y-2.4249
N4660 X1.3094 Y-2.4316
N4665 X1.3071 Y-2.4332 Z-0.1572
N4670 X1.3049 Y-2.4347 Z-0.1562
N4675 X1.3029 Y-2.436 Z-0.1548
N4680 X1.3014 Y-2.4373 Z-0.1528
N4685 X1.3002 Y-2.4382 Z-0.1504
N4690 X1.2996 Y-2.4389 Z-0.1478
N4695 X1.2994 Y-2.4393 Z-0.145
N4700 X1.2995 Z-0.1439
N4705 G0 Z0.1969
N4710 G1 X2.4381 Y-1.1203 F140.
N4715 G0 Z-0.1046
N4720 G1 Z-0.1439 F13.123
N4725 Y-1.1202 Z-0.145 F39.37
N4730 X2.4377 Y-1.1204 Z-0.1478
N4735 X2.4371 Y-1.1211 Z-0.1504
N4740 X2.4362 Y-1.1223 Z-0.1528
N4745 X2.435 Y-1.1239 Z-0.1548
N4750 X2.4338 Y-1.1259 Z-0.1562
N4755 X2.4324 Y-1.1282 Z-0.1572
N4760 X2.431 Y-1.1306 Z-0.1575
N4765 X2.4249 Y-1.1415
N4770 X2.3306 Y-1.3095
N4775 G2 X2.1563 Y-1.5799 I-2.3095 J1.2968
N4780 G1 X2.1537 Y-1.5835
N4785 G2 X1.95 Y-1.8286 I-2.1292 J1.5627
N4790 G1 X1.948 Y-1.8307
N4795 G2 X1.5483 Y-2.1791 I-1.9356 J1.8173
N4800 G1 X1.5426 Y-2.1831
N4805 G2 X1.3395 Y-2.3134 I-1.4965 J2.1099
N4810 G1 X1.1418 Y-2.4249
N4815 X1.1309 Y-2.431
N4820 X1.1285 Y-2.4324 Z-0.1572
N4825 X1.1262 Y-2.4338 Z-0.1562
N4830 X1.1242 Y-2.4351 Z-0.1548
N4835 X1.1226 Y-2.4362 Z-0.1528
N4840 X1.1214 Y-2.4371 Z-0.1504
N4845 X1.1207 Y-2.4378 Z-0.1478
N4850 X1.1205 Y-2.4381 Z-0.145
N4855 X1.1206 Y-2.4382 Z-0.1439
N4860 G0 Z0.1969
N4865 G1 X2.4366 Y-0.9136 F140.
N4870 G0 Z-0.1046
N4875 G1 Z-0.1439 F13.123
N4880 X2.4365 Y-0.9135 Z-0.145 F39.37
N4885 X2.4362 Y-0.9137 Z-0.1478
N4890 X2.4356 Y-0.9145 Z-0.1504
N4895 X2.4347 Y-0.9157 Z-0.1528
N4900 X2.4337 Y-0.9174 Z-0.1548
N4905 X2.4326 Y-0.9195 Z-0.1562
N4910 X2.4314 Y-0.9219 Z-0.1572
N4915 X2.4302 Y-0.9244 Z-0.1575
N4920 X2.4249 Y-0.9357
N4925 X2.3444 Y-1.1071
N4930 G2 X2.0667 Y-1.5655 I-2.3344 J1.1011
N4935 G1 X2.0648 Y-1.5679
N4940 G2 X1.8912 Y-1.7734 I-2.0403 J1.5471
N4945 G1 X1.8892 Y-1.7756
N4950 G2 X1.5017 Y-2.1133 I-1.8769 J1.7621
N4955 G1 X1.496 Y-2.1174
N4960 G2 X1.2992 Y-2.2436 I-1.4499 J2.0442
N4965 G1 X1.2943 Y-2.2465
N4970 G2 X1.1616 Y-2.3179 I-1.2671 J2.1945
N4975 G1 X1.1156 Y-2.3405
N4980 X0.9356 Y-2.4249
N4985 X0.9242 Y-2.4302
N4990 X0.9217 Y-2.4314 Z-0.1572
N4995 X0.9194 Y-2.4326 Z-0.1562
N5000 X0.9173 Y-2.4337 Z-0.1548
N5005 X0.9156 Y-2.4347 Z-0.1528
N5010 X0.9143 Y-2.4355 Z-0.1504
N5015 X0.9136 Y-2.4361 Z-0.1478
N5020 X0.9134 Y-2.4365 Z-0.145
N5025 Z-0.1439
N5030 G0 Z0.1969
N5035 G1 X2.4345 Y-0.6766 F140.
N5040 G0 Z-0.1046
N5045 G1 Z-0.1439 F13.123
N5050 Z-0.145 F39.37
N5055 X2.4341 Y-0.6768 Z-0.1478
N5060 X2.4336 Y-0.6776 Z-0.1504
N5065 X2.4329 Y-0.679 Z-0.1528
N5070 X2.4321 Y-0.6808 Z-0.1548
N5075 X2.4311 Y-0.6829 Z-0.1562
N5080 X2.4302 Y-0.6854 Z-0.1572
N5085 X2.4292 Y-0.688 Z-0.1575
N5090 X2.4249 Y-0.6997
N5095 X2.3649 Y-0.8643
N5100 G2 X2.2679 Y-1.0937 I-2.3204 J0.846
N5105 G1 X2.2662 Y-1.0972
N5110 G2 X2.007 Y-1.5203 I-2.2562 J1.0912
N5115 G1 X2.0052 Y-1.5227
N5120 G2 X1.8367 Y-1.7222 I-1.9808 J1.5019
N5125 G1 X1.8347 Y-1.7244
N5130 G2 X1.4584 Y-2.0523 I-1.8223 J1.7109
N5135 G1 X1.4527 Y-2.0564
N5140 G2 X1.2618 Y-2.1788 I-1.4066 J1.9832
N5145 G1 X1.2569 Y-2.1817
N5150 G2 X1.1281 Y-2.251 I-1.2296 J2.1296
N5155 G1 X1.118 Y-2.2561
N5160 G2 X0.995 Y-2.313 I-0.9823 J1.9622
N5165 G1 X0.9861 Y-2.3167
N5170 G2 X0.864 Y-2.365 I-0.9826 J2.3088
N5175 G1 X0.6999 Y-2.4249
N5180 X0.6881 Y-2.4292
N5185 X0.6855 Y-2.4302 Z-0.1572
N5190 X0.6831 Y-2.4311 Z-0.1562
N5195 X0.6809 Y-2.4321 Z-0.1548
N5200 X0.6791 Y-2.4329 Z-0.1528
N5205 X0.6778 Y-2.4336 Z-0.1504
N5210 X0.677 Y-2.4342 Z-0.1478
N5215 X0.6768 Y-2.4345 Z-0.145
N5220 Z-0.1439
N5225 G0 Z0.1969
N5230 G1 X2.4315 Y-0.3544 F140.
N5235 G0 Z-0.1046
N5240 G1 Z-0.1439 F13.123
N5245 Z-0.145 F39.37
N5250 X2.4312 Y-0.3547 Z-0.1478
N5255 X2.4307 Y-0.3555 Z-0.1504
N5260 X2.4302 Y-0.3569 Z-0.1528
N5265 X2.4296 Y-0.3588 Z-0.1548
N5270 X2.429 Y-0.3611 Z-0.1562
N5275 X2.4283 Y-0.3637 Z-0.1572
N5280 X2.4277 Y-0.3664 Z-0.1575
N5285 X2.4249 Y-0.3786
N5290 X2.3854 Y-0.5533
N5295 X2.3801 Y-0.5757
N5300 G2 X2.3094 Y-0.8144 I-2.3229 J0.5579
N5305 G1 X2.3078 Y-0.8189
N5310 G2 X2.2058 Y-1.0636 I-2.2633 J0.8005
N5315 G1 X2.204 Y-1.0672
N5320 G2 X1.952 Y-1.4786 I-2.194 J1.0611
N5325 G1 X1.9502 Y-1.481
N5330 G2 X1.7863 Y-1.675 I-1.9258 J1.4602
N5335 G1 X1.7843 Y-1.6771
N5340 G2 X1.4185 Y-1.996 I-1.772 J1.6636
N5345 G1 X1.4127 Y-2.0001
N5350 G2 X1.2273 Y-2.119 I-1.3667 J1.9269
N5355 G1 X1.2223 Y-2.1219
N5360 G2 X1.0972 Y-2.1892 I-1.195 J2.0698
N5365 G1 X1.0871 Y-2.1943
N5370 G2 X0.968 Y-2.2494 I-0.9514 J1.9004
N5375 G1 X0.9591 Y-2.2532
N5380 G2 X0.7425 Y-2.3335 I-0.9555 J2.2451
N5385 G1 X0.7359 Y-2.3356
N5390 G2 X0.5444 Y-2.3875 I-0.7006 J2.205
N5395 G1 X0.3787 Y-2.4249
N5400 X0.3665 Y-2.4276
N5405 X0.3638 Y-2.4283 Z-0.1572
N5410 X0.3612 Y-2.4289 Z-0.1562
N5415 X0.3589 Y-2.4296 Z-0.1548
N5420 X0.3571 Y-2.4302 Z-0.1528
N5425 X0.3556 Y-2.4307 Z-0.1504
N5430 X0.3548 Y-2.4312 Z-0.1478
N5435 X0.3545 Y-2.4315 Z-0.145
N5440 X0.3546 Z-0.1439
N5445 G0 Z0.1969
N5450 G1 X0.9417 Y0.6622 F140.
N5455 G0 Z-0.1046
N5460 G1 Z-0.1439 F13.123
N5465 X0.9418 Z-0.145 F39.37
N5470 X0.9419 Y0.6626 Z-0.1478
N5475 X0.9417 Y0.6636 Z-0.1504
N5480 X0.9414 Y0.665 Z-0.1528
N5485 X0.9407 Y0.6669 Z-0.1548
N5490 X0.9399 Y0.6691 Z-0.1562
N5495 X0.939 Y0.6716 Z-0.1572
N5500 X0.9379 Y0.6742 Z-0.1575
N5505 X0.933 Y0.6857
N5510 G3 X0.9105 Y0.6817 I-0.0108 J-0.0046
N5515 G1 X0.8779 Y0.0652
N5520 G3 X0.904 Y0.0592 I0.0136 J-0.0007
N5525 G1 X0.9387 Y0.1413
N5530 G3 X0.9703 Y0.3402 I-0.3858 J0.1633
N5535 G1 X0.9634 Y0.4184
N5540 X0.9597 Y0.4536
N5545 X0.9336 Y0.6841
N5550 X0.933 Y0.6857
N5555 G2 X0.9475 Y0.7488 I0.0508 J0.0216
N5560 G3 X0.9689 Y0.81 I-0.043 J0.0493
N5565 G1 X0.9458 Y0.9351
N5570 G3 X0.9122 Y0.9365 I-0.0169 J-0.0031
N5575 G1 X0.8766 Y0.8084
N5580 G3 X0.8519 Y0.6757 I0.7505 J-0.2086
N5585 G1 X0.8493 Y0.6493
N5590 G3 X0.8265 Y0.2907 I5.2603 J-0.5147
N5595 G1 X0.8156 Y-0.0778
N5600 G3 X0.8531 Y-0.0924 I0.0213 J-0.0006
N5605 G1 X0.9213 Y-0.0132
N5610 G3 X1.0375 Y0.3467 I-0.3691 J0.318
N5615 G1 X1.0336 Y0.3919
N5620 G3 X0.9993 Y0.6457 I-2.6367 J-0.2277
N5625 G1 X0.9689 Y0.81
N5630 G2 X0.9912 Y0.8841 I0.083 J0.0154
N5635 G3 X1.0117 Y0.9587 I-0.0579 J0.056
N5640 G1 X0.9734 Y1.1206
N5645 G3 X0.9313 Y1.1258 I-0.0221 J-0.0052
N5650 G1 X0.8643 Y0.9968
N5655 G3 X0.771 Y0.6813 I0.7662 J-0.3979
N5660 G1 X0.7677 Y0.6469
N5665 G3 X0.7485 Y0.3734 I5.3419 J-0.5123
N5670 G1 X0.7474 Y0.3466
N5675 X0.7467 Y0.3228
N5680 G3 X0.745 Y0.1827 I4.3642 J-0.1229
N5685 G1 X0.7468 Y-0.2039
N5690 G3 X0.786 Y-0.2243 I0.025 J0.0001
N5695 G1 X0.8752 Y-0.1626
N5700 G3 X1.1182 Y0.3546 I-0.3235 J0.4676
N5705 G1 X1.114 Y0.4024
N5710 G3 X1.0512 Y0.7919 I-2.717 J-0.2381
N5715 G1 X1.0117 Y0.9587
N5720 G2 X1.0342 Y1.0335 I0.076 J0.018
N5725 G3 X1.055 Y1.1089 I-0.0515 J0.0548
N5730 G1 X1.0046 Y1.2864
N5735 G3 X0.9707 Y1.2935 I-0.0188 J-0.0053
N5740 G1 X0.8986 Y1.2063
N5745 G3 X0.6827 Y0.6789 I0.7333 J-0.608
N5750 G1 X0.6699 Y0.5274
N5755 X0.6666 Y0.4853
N5760 X0.6642 Y0.4433
N5765 X0.6605 Y0.3712
N5770 X0.6598 Y0.3504
N5775 G3 X0.6573 Y0.1905 I3.9502 J-0.1416
N5780 G1 X0.6574 Y0.1583
N5785 G3 X0.6617 Y-0.0189 I4.5575 J0.021
N5790 G1 X0.6747 Y-0.3188
N5795 G3 X0.7094 Y-0.3408 I0.025 J0.0011
N5800 G1 X0.8068 Y-0.2997
N5805 G3 X1.2047 Y0.3708 I-0.255 J0.6047
N5810 G1 X1.195 Y0.4668
N5815 G3 X1.124 Y0.8598 I-2.5395 J-0.2558
N5820 G1 X1.1061 Y0.9276
N5825 X1.0912 Y0.9813
N5830 X1.055 Y1.1089
N5835 X1.0516 Y1.1209
N5840 X1.0508 Y1.1235 Z-0.1572
N5845 X1.05 Y1.1261 Z-0.1562
N5850 X1.0493 Y1.1283 Z-0.1548
N5855 X1.0486 Y1.1302 Z-0.1528
N5860 X1.048 Y1.1315 Z-0.1504
N5865 X1.0475 Y1.1324 Z-0.1478
N5870 X1.0472 Y1.1326 Z-0.145
N5875 X1.0471 Z-0.1439
N5880 G0 Z0.1969
N5885 G1 X-0.8823 Y0.125 F140.
N5890 G0 Z-0.1046
N5895 G1 Z-0.1439 F13.123
N5900 Z-0.145 F39.37
N5905 X-0.8821 Y0.1254 Z-0.1478
N5910 X-0.8819 Y0.1263 Z-0.1504
N5915 X-0.8817 Y0.1278 Z-0.1528
N5920 Y0.1298 Z-0.1548
N5925 Y0.1321 Z-0.1562
N5930 X-0.8818 Y0.1348 Z-0.1572
N5935 X-0.8819 Y0.1376 Z-0.1575
N5940 X-0.8826 Y0.1501
N5945 X-0.912 Y0.6802
N5950 G3 X-0.935 Y0.6808 I-0.0115 J-0.0006
N5955 G1 X-0.9578 Y0.4667
N5960 G3 X-0.9667 Y0.3574 I2.2487 J-0.2394
N5965 G1 X-0.9686 Y0.3254
N5970 G3 X-0.9378 Y0.1423 I0.4174 J-0.0241
N5975 G1 X-0.904 Y0.06
N5980 G3 X-0.8779 Y0.0659 I0.0125 J0.0052
N5985 G1 X-0.8826 Y0.1501
N5990 G2 X-0.8543 Y0.2116 I0.0723 J0.004
N5995 G3 X-0.825 Y0.2727 I-0.0453 J0.0592
N6000 G1 X-0.826 Y0.3095
N6005 G3 X-0.8405 Y0.546 I-3.2758 J-0.082
N6010 G1 X-0.8546 Y0.691
N6015 G3 X-0.8784 Y0.8154 I-0.6877 J-0.0672
N6020 G1 X-0.9132 Y0.9357
N6025 G3 X-0.947 Y0.9341 I-0.0167 J-0.0048
N6030 G1 X-0.9996 Y0.6482
N6035 G3 X-1.0339 Y0.3647 I2.2904 J-0.4209
N6040 G1 X-1.0359 Y0.3303
N6045 G3 X-0.9212 Y-0.0132 I0.4855 J-0.0287
N6050 G1 X-0.8535 Y-0.0929
N6055 G3 X-0.8162 Y-0.0787 I0.0161 J0.0137
N6060 G1 X-0.825 Y0.2727
N6065 G2 X-0.7869 Y0.3521 I0.0967 J0.0024
N6070 G3 X-0.7502 Y0.4322 I-0.0566 J0.0744
N6075 X-0.7598 Y0.5525 I-3.3514 J-0.2047
N6080 G1 X-0.7739 Y0.698
N6085 G3 X-0.8664 Y0.9969 I-0.7715 J-0.075
N6090 G1 X-0.9337 Y1.119
N6095 G3 X-0.9774 Y1.1129 I-0.0207 J-0.0114
N6100 G1 X-1.0614 Y0.7474
N6105 G3 X-1.1098 Y0.4281 I2.0929 J-0.4808
N6110 G1 X-1.1161 Y0.3445
N6115 G3 X-0.8756 Y-0.1634 I0.5662 J-0.0427
N6120 G1 X-0.7874 Y-0.2251
N6125 G3 X-0.748 Y-0.2049 I0.0143 J0.0205
N6130 G1 X-0.7438 Y0.1317
N6135 G3 X-0.7445 Y0.2893 I-4.5355 J0.0572
N6140 G1 X-0.7448 Y0.3018
N6145 G3 X-0.7502 Y0.4322 I-3.357 J-0.0743
N6150 G2 X-0.7122 Y0.5115 I0.0902 J0.0055
N6155 G3 X-0.6755 Y0.5915 I-0.0505 J0.0715
N6160 G1 X-0.6867 Y0.7066
N6165 G3 X-0.8722 Y1.1626 I-0.8587 J-0.0837
N6170 G1 X-0.9602 Y1.2724
N6175 X-0.9735 Y1.2898
N6180 G3 X-1.0071 Y1.2834 I-0.0152 J-0.0116
N6185 G1 X-1.0932 Y0.9788
N6190 G3 X-1.1342 Y0.8204 I3.5448 J-1.0025
N6195 G1 X-1.1465 Y0.767
N6200 X-1.1639 Y0.6823
N6205 G3 X-1.1925 Y0.4821 I1.7174 J-0.3475
N6210 G1 X-1.2031 Y0.3568
N6215 G3 X-0.8178 Y-0.2965 I0.6531 J-0.0551
N6220 G1 X-0.7137 Y-0.3431
N6225 G3 X-0.6786 Y-0.3218 I0.0102 J0.0228
N6230 G1 X-0.6639 Y-0.0893
N6235 G3 X-0.6578 Y0.0486 I-3.6547 J0.2305
N6240 G1 X-0.6572 Y0.0721
N6245 G3 X-0.6569 Y0.2913 I-4.6222 J0.1168
N6250 G1 X-0.6572 Y0.3037
N6255 G3 X-0.6668 Y0.4958 I-3.4446 J-0.0763
N6260 G1 X-0.6696 Y0.5305
N6265 X-0.6755 Y0.5915
N6270 X-0.6767 Y0.6039
N6275 X-0.677 Y0.6067 Z-0.1572
N6280 X-0.6773 Y0.6093 Z-0.1562
N6285 X-0.6777 Y0.6117 Z-0.1548
N6290 X-0.6781 Y0.6136 Z-0.1528
N6295 X-0.6784 Y0.6151 Z-0.1504
N6300 X-0.6787 Y0.616 Z-0.1478
N6305 X-0.679 Y0.6163 Z-0.145
N6310 Z-0.1439
N6315 G0 Z0.1969
N6320 G1 X-2.2692 Y-2.4434 F140.
N6325 G0 Z-0.1046
N6330 G1 Z-0.1439 F13.123
N6335 X-2.2691 Y-2.4433 Z-0.145 F39.37
N6340 X-2.2692 Y-2.4429 Z-0.1478
N6345 X-2.2697 Y-2.4421 Z-0.1504
N6350 X-2.2706 Y-2.4409 Z-0.1528
N6355 X-2.2719 Y-2.4394 Z-0.1548
N6360 X-2.2735 Y-2.4376 Z-0.1562
N6365 X-2.2753 Y-2.4357 Z-0.1572
N6370 X-2.2772 Y-2.4337 Z-0.1575
N6375 X-2.2861 Y-2.4249
N6380 X-2.4249 Y-2.2861
N6385 X-2.4337 Y-2.2772
N6390 X-2.4357 Y-2.2753 Z-0.1572
N6395 X-2.4376 Y-2.2735 Z-0.1562
N6400 X-2.4394 Y-2.2719 Z-0.1548
N6405 X-2.4409 Y-2.2706 Z-0.1528
N6410 X-2.4421 Y-2.2697 Z-0.1504
N6415 X-2.443 Y-2.2692 Z-0.1478
N6420 X-2.4433 Z-0.145
N6425 X-2.4434 Z-0.1439
N6430 G0 Z0.1969
N6435 G1 X-2.1454 Y-2.4434 F140.
N6440 G0 Z-0.1046
N6445 G1 Z-0.1439 F13.123
N6450 Y-2.4433 Z-0.145 F39.37
N6455 Y-2.4429 Z-0.1478
N6460 X-2.1459 Y-2.4421 Z-0.1504
N6465 X-2.1468 Y-2.4409 Z-0.1528
N6470 X-2.1481 Y-2.4394 Z-0.1548
N6475 X-2.1497 Y-2.4376 Z-0.1562
N6480 X-2.1515 Y-2.4357 Z-0.1572
N6485 X-2.1535 Y-2.4337 Z-0.1575
N6490 X-2.1623 Y-2.4249
N6495 X-2.4249 Y-2.1623
N6500 X-2.4337 Y-2.1535
N6505 X-2.4357 Y-2.1516 Z-0.1572
N6510 X-2.4376 Y-2.1498 Z-0.1562
N6515 X-2.4394 Y-2.1482 Z-0.1548
N6520 X-2.4409 Y-2.1469 Z-0.1528
N6525 X-2.4421 Y-2.146 Z-0.1504
N6530 X-2.443 Y-2.1455 Z-0.1478
N6535 X-2.4433 Y-2.1454 Z-0.145
N6540 X-2.4434 Y-2.1455 Z-0.1439
N6545 G0 Z0.1969
N6550 G1 X-2.0212 Y-2.4433 F140.
N6555 G0 Z-0.1046
N6560 G1 Z-0.1439 F13.123
N6565 X-2.0211 Z-0.145 F39.37
N6570 X-2.0212 Y-2.4429 Z-0.1478
N6575 X-2.0217 Y-2.4421 Z-0.1504
N6580 X-2.0226 Y-2.4409 Z-0.1528
N6585 X-2.0239 Y-2.4394 Z-0.1548
N6590 X-2.0255 Y-2.4376 Z-0.1562
N6595 X-2.0273 Y-2.4357 Z-0.1572
N6600 X-2.0292 Y-2.4337 Z-0.1575
N6605 X-2.0381 Y-2.4249
N6610 X-2.2427 Y-2.2218
N6615 X-2.4249 Y-2.0381
N6620 X-2.4337 Y-2.0292
N6625 X-2.4357 Y-2.0273 Z-0.1572
N6630 X-2.4376 Y-2.0254 Z-0.1562
N6635 X-2.4394 Y-2.0239 Z-0.1548
N6640 X-2.4409 Y-2.0226 Z-0.1528
N6645 X-2.4421 Y-2.0217 Z-0.1504
N6650 X-2.4429 Y-2.0212 Z-0.1478
N6655 X-2.4433 Y-2.0211 Z-0.145
N6660 Z-0.1439
N6665 G0 Z0.1969
N6670 G1 X-1.8915 Y-2.4427 F140.
N6675 G0 Z-0.1046
N6680 G1 Z-0.1439 F13.123
N6685 Z-0.145 F39.37
N6690 X-1.8916 Y-2.4423 Z-0.1478
N6695 X-1.8921 Y-2.4415 Z-0.1504
N6700 X-1.893 Y-2.4403 Z-0.1528
N6705 X-1.8944 Y-2.4388 Z-0.1548
N6710 X-1.896 Y-2.4371 Z-0.1562
N6715 X-1.8979 Y-2.4353 Z-0.1572
N6720 X-1.8999 Y-2.4334 Z-0.1575
N6725 X-1.9091 Y-2.4249
N6730 X-2.074 Y-2.2726
N6735 G2 X-2.2726 Y-2.0741 I2.3961 J2.5946
N6740 G1 X-2.4249 Y-1.9091
N6745 X-2.4334 Y-1.8999
N6750 X-2.4353 Y-1.8979 Z-0.1572
N6755 X-2.4371 Y-1.896 Z-0.1562
N6760 X-2.4388 Y-1.8944 Z-0.1548
N6765 X-2.4403 Y-1.893 Z-0.1528
N6770 X-2.4415 Y-1.8921 Z-0.1504
N6775 X-2.4423 Y-1.8916 Z-0.1478
N6780 X-2.4427 Y-1.8915 Z-0.145
N6785 Z-0.1439
N6790 G0 Z0.1969
N6795 G1 X-1.7561 Y-2.442 F140.
N6800 G0 Z-0.1046
N6805 G1 Z-0.1439 F13.123
N6810 Z-0.145 F39.37
N6815 Y-2.4416 Z-0.1478
N6820 X-1.7567 Y-2.4408 Z-0.1504
N6825 X-1.7577 Y-2.4397 Z-0.1528
N6830 X-1.7591 Y-2.4383 Z-0.1548
N6835 X-1.7608 Y-2.4366 Z-0.1562
N6840 X-1.7628 Y-2.4348 Z-0.1572
N6845 X-1.7649 Y-2.433 Z-0.1575
N6850 X-1.7744 Y-2.4249
N6855 X-1.935 Y-2.2878
N6860 G2 X-2.2877 Y-1.9351 I2.0592 J2.4119
N6865 G1 X-2.4249 Y-1.7744
N6870 X-2.433 Y-1.7649
N6875 X-2.4348 Y-1.7628 Z-0.1572
N6880 X-2.4366 Y-1.7608 Z-0.1562
N6885 X-2.4383 Y-1.7591 Z-0.1548
N6890 X-2.4397 Y-1.7577 Z-0.1528
N6895 X-2.4408 Y-1.7567 Z-0.1504
N6900 X-2.4416 Y-1.7561 Z-0.1478
N6905 X-2.442 Z-0.145
N6910 Z-0.1439
N6915 G0 Z0.1969
N6920 G1 X-1.6135 Y-2.4412 F140.
N6925 G0 Z-0.1046
N6930 G1 Z-0.1439 F13.123
N6935 Z-0.145 F39.37
N6940 X-1.6136 Y-2.4408 Z-0.1478
N6945 X-1.6142 Y-2.44 Z-0.1504
N6950 X-1.6152 Y-2.439 Z-0.1528
N6955 X-1.6167 Y-2.4376 Z-0.1548
N6960 X-1.6185 Y-2.436 Z-0.1562
N6965 X-1.6205 Y-2.4343 Z-0.1572
N6970 X-1.6227 Y-2.4326 Z-0.1575
N6975 X-1.6325 Y-2.4249
N6980 X-1.7932 Y-2.299
N6985 G2 X-2.2988 Y-1.7934 I1.833 J2.3388
N6990 G1 X-2.4249 Y-1.6325
N6995 X-2.4326 Y-1.6227
N7000 X-2.4343 Y-1.6205 Z-0.1572
N7005 X-2.436 Y-1.6185 Z-0.1562
N7010 X-2.4376 Y-1.6167 Z-0.1548
N7015 X-2.439 Y-1.6153 Z-0.1528
N7020 X-2.44 Y-1.6142 Z-0.1504
N7025 X-2.4408 Y-1.6136 Z-0.1478
N7030 X-2.4412 Y-1.6135 Z-0.145
N7035 Y-1.6136 Z-0.1439
N7040 G0 Z0.1969
N7045 G1 X-1.4625 Y-2.4404 F140.
N7050 G0 Z-0.1046
N7055 G1 Z-0.1439 F13.123
N7060 Y-2.4403 Z-0.145 F39.37
N7065 X-1.4626 Y-2.44 Z-0.1478
N7070 X-1.4632 Y-2.4392 Z-0.1504
N7075 X-1.4643 Y-2.4382 Z-0.1528
N7080 X-1.4658 Y-2.4369 Z-0.1548
N7085 X-1.4677 Y-2.4354 Z-0.1562
N7090 X-1.4698 Y-2.4338 Z-0.1572
N7095 X-1.472 Y-2.4322 Z-0.1575
N7100 X-1.4822 Y-2.4249
N7105 X-1.651 Y-2.3041
N7110 G2 X-2.3036 Y-1.6516 I1.6452 J2.2982
N7115 G1 X-2.4249 Y-1.4823
N7120 X-2.4322 Y-1.4721
N7125 X-2.4338 Y-1.4699 Z-0.1572
N7130 X-2.4354 Y-1.4678 Z-0.1562
N7135 X-2.4369 Y-1.4659 Z-0.1548
N7140 X-2.4382 Y-1.4644 Z-0.1528
N7145 X-2.4392 Y-1.4633 Z-0.1504
N7150 X-2.44 Y-1.4627 Z-0.1478
N7155 X-2.4403 Y-1.4626 Z-0.145
N7160 X-2.4404 Z-0.1439
N7165 G0 Z0.1969
N7170 G1 X-1.2996 Y-2.4393 F140.
N7175 G0 Z-0.1046
N7180 G1 Z-0.1439 F13.123
N7185 Z-0.145 F39.37
N7190 X-1.2997 Y-2.4389 Z-0.1478
N7195 X-1.3003 Y-2.4382 Z-0.1504
N7200 X-1.3015 Y-2.4373 Z-0.1528
N7205 X-1.3031 Y-2.436 Z-0.1548
N7210 X-1.305 Y-2.4347 Z-0.1562
N7215 X-1.3072 Y-2.4332 Z-0.1572
N7220 X-1.3095 Y-2.4316 Z-0.1575
N7225 X-1.32 Y-2.4249
N7230 X-1.4873 Y-2.3177
N7235 G2 X-2.3164 Y-1.4893 I1.4815 J2.3119
N7240 G1 X-2.4249 Y-1.3203
N7245 X-2.4316 Y-1.3098
N7250 X-2.4332 Y-1.3075 Z-0.1572
N7255 X-2.4347 Y-1.3053 Z-0.1562
N7260 X-2.4361 Y-1.3034 Z-0.1548
N7265 X-2.4373 Y-1.3018 Z-0.1528
N7270 X-2.4383 Y-1.3007 Z-0.1504
N7275 X-2.4389 Y-1.3 Z-0.1478
N7280 X-2.4393 Y-1.2999 Z-0.145
N7285 X-2.4394 Z-0.1439
N7290 G0 Z0.1969
N7295 G1 X-1.1205 Y-2.4382 F140.
N7300 G0 Z-0.1046
N7305 G1 Z-0.1439 F13.123
N7310 Y-2.4381 Z-0.145 F39.37
N7315 X-1.1207 Y-2.4378 Z-0.1478
N7320 X-1.1214 Y-2.4371 Z-0.1504
N7325 X-1.1226 Y-2.4362 Z-0.1528
N7330 X-1.1242 Y-2.4351 Z-0.1548
N7335 X-1.1262 Y-2.4338 Z-0.1562
N7340 X-1.1285 Y-2.4324 Z-0.1572
N7345 X-1.1309 Y-2.431 Z-0.1575
N7350 X-1.1418 Y-2.4249
N7355 X-1.3317 Y-2.3179
N7360 G2 X-2.2897 Y-1.3796 I1.3259 J2.3121
N7365 G1 X-2.312 Y-1.342
N7370 X-2.3311 Y-1.3086
N7375 X-2.4249 Y-1.1417
N7380 X-2.431 Y-1.1308
N7385 X-2.4324 Y-1.1284 Z-0.1572
N7390 X-2.4338 Y-1.1261 Z-0.1562
N7395 X-2.435 Y-1.1241 Z-0.1548
N7400 X-2.4362 Y-1.1225 Z-0.1528
N7405 X-2.4371 Y-1.1213 Z-0.1504
N7410 X-2.4377 Y-1.1206 Z-0.1478
N7415 X-2.4381 Y-1.1205 Z-0.145
N7420 Z-0.1439
N7425 G0 Z0.1969
N7430 G1 X-0.9136 Y-2.4365 F140.
N7435 G0 Z-0.1046
N7440 G1 Z-0.1439 F13.123
N7445 Z-0.145 F39.37
N7450 X-0.9138 Y-2.4361 Z-0.1478
N7455 X-0.9145 Y-2.4355 Z-0.1504
N7460 X-0.9158 Y-2.4347 Z-0.1528
N7465 X-0.9175 Y-2.4337 Z-0.1548
N7470 X-0.9196 Y-2.4326 Z-0.1562
N7475 X-0.9219 Y-2.4314 Z-0.1572
N7480 X-0.9244 Y-2.4302 Z-0.1575
N7485 X-0.9357 Y-2.4249
N7490 X-1.1012 Y-2.3473
N7495 G2 X-1.3098 Y-2.2375 I1.0901 J2.3238
N7500 G1 X-1.3136 Y-2.2353
N7505 G2 X-2.2035 Y-1.3663 I1.3078 J2.2294
N7510 G1 X-2.2052 Y-1.3634
N7515 G2 X-2.3472 Y-1.1014 I2.189 J1.3551
N7520 G1 X-2.4249 Y-0.9356
N7525 X-2.4302 Y-0.9243
N7530 X-2.4314 Y-0.9218 Z-0.1572
N7535 X-2.4326 Y-0.9194 Z-0.1562
N7540 X-2.4337 Y-0.9173 Z-0.1548
N7545 X-2.4347 Y-0.9156 Z-0.1528
N7550 X-2.4355 Y-0.9144 Z-0.1504
N7555 X-2.4361 Y-0.9136 Z-0.1478
N7560 X-2.4365 Y-0.9134 Z-0.145
N7565 Y-0.9135 Z-0.1439
N7570 G0 Z0.1969
N7575 G1 X-0.6767 Y-2.4345 F140.
N7580 G0 Z-0.1046
N7585 G1 Z-0.1439 F13.123
N7590 Z-0.145 F39.37
N7595 X-0.6769 Y-2.4341 Z-0.1478
N7600 X-0.6777 Y-2.4336 Z-0.1504
N7605 X-0.679 Y-2.4329 Z-0.1528
N7610 X-0.6808 Y-2.4321 Z-0.1548
N7615 X-0.683 Y-2.4311 Z-0.1562
N7620 X-0.6854 Y-2.4302 Z-0.1572
N7625 X-0.6881 Y-2.4292 Z-0.1575
N7630 X-0.6998 Y-2.4249
N7635 X-0.8629 Y-2.3654
N7640 G2 X-1.3041 Y-2.1538 I0.859 J2.3567
N7645 G1 X-1.3068 Y-2.1522
N7650 G2 X-2.1145 Y-1.3671 I1.301 J2.1464
N7655 G1 X-2.1157 Y-1.3652
N7660 G2 X-2.3654 Y-0.8628 I2.1105 J1.3624
N7665 G1 X-2.4249 Y-0.6996
N7670 X-2.4292 Y-0.6879
N7675 X-2.4302 Y-0.6852 Z-0.1572
N7680 X-2.4311 Y-0.6828 Z-0.1562
N7685 X-2.4321 Y-0.6806 Z-0.1548
N7690 X-2.4329 Y-0.6788 Z-0.1528
N7695 X-2.4336 Y-0.6775 Z-0.1504
N7700 X-2.4341 Y-0.6767 Z-0.1478
N7705 X-2.4345 Y-0.6765 Z-0.145
N7710 Z-0.1439
N7715 G0 Z0.1969
N7720 G1 X-0.3544 Y-2.4315 F140.
N7725 G0 Z-0.1046
N7730 G1 Z-0.1439 F13.123
N7735 Z-0.145 F39.37
N7740 X-0.3546 Y-2.4311 Z-0.1478
N7745 X-0.3555 Y-2.4307 Z-0.1504
N7750 X-0.3569 Y-2.4302 Z-0.1528
N7755 X-0.3588 Y-2.4296 Z-0.1548
N7760 X-0.361 Y-2.4289 Z-0.1562
N7765 X-0.3636 Y-2.4283 Z-0.1572
N7770 X-0.3663 Y-2.4276 Z-0.1575
N7775 X-0.3785 Y-2.4249
N7780 X-0.5386 Y-2.3889
N7785 G2 X-1.3082 Y-2.0701 I0.537 J2.3852
N7790 G1 X-1.3103 Y-2.0688
N7795 G2 X-2.02 Y-1.3844 I1.3045 J2.063
N7800 G1 X-2.0209 Y-1.3831
N7805 G2 X-2.3728 Y-0.6051 I2.0196 J1.3822
N7810 G1 X-2.3815 Y-0.5701
N7815 X-2.4249 Y-0.3788
N7820 X-2.4277 Y-0.3666
N7825 X-2.4283 Y-0.3639 Z-0.1572
N7830 X-2.429 Y-0.3614 Z-0.1562
N7835 X-2.4296 Y-0.3591 Z-0.1548
N7840 X-2.4302 Y-0.3572 Z-0.1528
N7845 X-2.4308 Y-0.3558 Z-0.1504
N7850 X-2.4312 Y-0.3549 Z-0.1478
N7855 X-2.4315 Y-0.3547 Z-0.145
N7860 Z-0.1439
N7865 G0 Z0.1969
N7870 G1 X-0.6755 Y0.5915 F140.
N7875 G0 Z-0.1181
N7880 G1 Z-0.1575 F13.123
N7885 G2 X-0.6374 Y0.6486 I0.2082 J-0.0977 F39.37
N7890 G3 X-0.6179 Y0.7144 I-0.0584 J0.0532
N7895 X-0.6398 Y0.8252 I-1.5906 J-0.2574
N7900 G1 X-0.652 Y0.8741
N7905 G3 X-0.6757 Y0.9516 I-1.1433 J-0.3067
N7910 G1 X-0.6905 Y0.9925
N7915 G3 X-0.721 Y1.0622 I-0.8137 J-0.3138
N7920 G1 X-0.7238 Y1.0679
N7925 G3 X-0.8741 Y1.2728 I-0.6468 J-0.3167
N7930 G1 X-0.8833 Y1.2816
N7935 G2 X-0.968 Y1.4813 I0.1881 J0.1976
N7940 G1 Y1.491
N7945 G2 X-0.8759 Y1.6933 I0.2729 J-0.0021
N7950 G1 X-0.784 Y1.7746
N7955 G2 X-0.6434 Y1.88 I0.7204 J-0.8143
N7960 G1 X-0.5918 Y1.9125
N7965 X-0.5883 Y1.9152
N7970 X-0.5853 Y1.9185
N7975 X-0.5531 Y1.9606
N7980 G2 X-0.395 Y2.1331 I1.0529 J-0.8062
N7985 G1 X-0.2055 Y2.3063
N7990 G2 X0.2019 Y2.3069 I0.204 J-0.2232
N7995 G1 X0.4074 Y2.1202
N8000 G2 X0.5563 Y1.9572 I-0.8002 J-0.8806
N8005 G1 X0.5859 Y1.918
N8010 X0.5879 Y1.9157
N8015 X0.5901 Y1.9137
N8020 X0.5926 Y1.9119
N8025 X0.6393 Y1.8825
N8030 G2 X0.8254 Y1.734 I-0.5617 J-0.8941
N8035 G1 X0.8929 Y1.6663
N8040 G2 X0.9674 Y1.4906 I-0.181 J-0.1804
N8045 G1 X0.9675 Y1.4856
N8050 G2 X0.8908 Y1.2983 I-0.2555 J-0.0048
N8055 G1 X0.8812 Y1.2889
N8060 G3 X0.6405 Y0.8382 I0.5948 J-0.6073
N8065 G1 X0.6252 Y0.7567
N8070 G3 X0.6086 Y0.6511 I1.7873 J-0.3352
N8075 G1 X0.6072 Y0.64
N8080 G3 X0.5905 Y0.4558 I2.5326 J-0.3223
N8085 G1 X0.5871 Y0.3935
N8090 X0.5864 Y0.3748
N8095 G3 X0.5831 Y0.1792 I4.2196 J-0.1694
N8100 G1 X0.5832 Y0.1505
N8105 G3 X0.5926 Y-0.1155 I4.6318 J0.0288
N8110 G1 X0.5949 Y-0.1514
N8115 X0.5974 Y-0.1837
N8120 X0.615 Y-0.3872
N8125 G3 X0.6628 Y-0.4207 I0.0379 J0.0033
N8130 G1 X0.742 Y-0.3994
N8135 G3 X0.7909 Y-0.3839 I-0.1569 J0.5786
N8140 G1 X0.8058 Y-0.3784
N8145 G3 X1.2781 Y0.3686 I-0.2485 J0.6799
N8150 G1 X1.2673 Y0.4839
N8155 G3 X1.2424 Y0.663 I-1.9671 J-0.1831
N8160 G1 X1.2306 Y0.7262
N8165 X1.2274 Y0.7415
N8170 G3 X1.2007 Y0.8586 I-2.8313 J-0.5851
N8175 G1 X1.1985 Y0.8673
N8180 G3 X1.1142 Y1.1606 I-4.3039 J-1.0776
N8185 G1 X1.1108 Y1.171
N8190 G3 X0.9575 Y1.5833 I-4.9956 J-1.6231
N8195 G1 X0.893 Y1.7369
N8200 G2 X0.9693 Y2.0294 I0.2293 J0.0964
N8205 G1 X0.9739 Y2.033
N8210 G2 X1.2834 Y2.0303 I0.153 J-0.1961
N8215 G1 X1.5009 Y1.8542
N8220 G2 X1.9161 Y1.421 I-1.4972 J-1.8501
N8225 G1 X1.9172 Y1.4194
N8230 G2 X2.1922 Y0.9407 I-1.9101 J-1.4152
N8235 G1 X2.1931 Y0.9384
N8240 G2 X2.2366 Y0.8296 I-2.1584 J-0.9251
N8245 G1 X2.2371 Y0.8283
N8250 G2 X2.317 Y0.5674 I-2.2209 J-0.8234
N8255 G1 X2.3178 Y0.5642
N8260 G2 X2.3598 Y0.3492 I-2.2745 J-0.5561
N8265 G1 X2.3603 Y0.3462
N8270 G2 X2.3764 Y-0.2082 I-2.3478 J-0.3456
N8275 G1 X2.3761 Y-0.2113
N8280 G2 X2.3395 Y-0.4661 I-2.3514 J0.2077
N8285 G1 X2.331 Y-0.5069
N8290 X2.3222 Y-0.5456
N8295 X2.3145 Y-0.5773
N8300 G2 X2.2497 Y-0.7933 I-2.2574 J0.5595
N8305 G1 X2.2482 Y-0.7978
N8310 G2 X2.1488 Y-1.036 I-2.2036 J0.7794
N8315 G1 X2.147 Y-1.0396
N8320 G2 X1.9016 Y-1.4403 I-2.137 J1.0336
N8325 G1 X1.8997 Y-1.4427
N8330 G2 X1.7402 Y-1.6316 I-1.8753 J1.422
N8335 G1 X1.7382 Y-1.6338
N8340 G2 X1.4025 Y-1.9296 I-1.7258 J1.6203
N8345 G1 X1.3548 Y-1.9634
N8350 G2 X1.1956 Y-2.0642 I-1.3088 J1.8902
N8355 G1 X1.1907 Y-2.067
N8360 G2 X1.0689 Y-2.1326 I-1.1634 J2.0149
N8365 G1 X1.0587 Y-2.1377
N8370 G2 X0.9432 Y-2.1912 I-0.9229 J1.8436
N8375 G1 X0.9343 Y-2.1949
N8380 G2 X0.7233 Y-2.2732 I-0.9307 J2.1869
N8385 G1 X0.7167 Y-2.2753
N8390 G2 X0.5263 Y-2.3267 I-0.6815 J2.1446
N8395 G1 X0.5187 Y-2.3284
N8400 G2 X0.1764 Y-2.3789 I-0.515 J2.3032
N8405 G1 X0.1731 Y-2.3792
N8410 G2 X-0.3009 Y-2.3664 I-0.1736 J2.3654
N8415 G1 X-0.3027 Y-2.3662
N8420 G2 X-1.3216 Y-1.986 I0.3019 J2.3646
N8425 G1 X-1.3231 Y-1.985
N8430 G2 X-1.9678 Y-1.3486 I1.3173 J1.9792
N8435 G1 X-1.9687 Y-1.3474
N8440 G2 X-2.3008 Y-0.63 I1.9673 J1.3464
N8445 G1 X-2.3012 Y-0.6286
N8450 G2 X-2.3715 Y-0.2587 I2.2955 J0.628
N8455 G1 Y-0.2584
N8460 G2 X-2.3725 Y0.2484 I2.3645 J0.258
N8465 G1 X-2.3722 Y0.2511
N8470 G2 X-2.3268 Y0.5258 I2.3508 J-0.2473
N8475 G1 X-2.3261 Y0.5291
N8480 G2 X-2.2611 Y0.7603 I2.2809 J-0.5164
N8485 G1 X-2.2599 Y0.7639
N8490 G2 X-2.2072 Y0.9046 I2.1732 J-0.7331
N8495 G1 X-2.2051 Y0.9097
N8500 G2 X-1.4806 Y1.875 I2.2292 J-0.9186
N8505 G1 X-1.2847 Y2.0315
N8510 G2 X-0.9743 Y2.0331 I0.1561 J-0.1955
N8515 G1 X-0.9697 Y2.0294
N8520 G2 X-0.894 Y1.7336 I-0.1542 J-0.1971
N8525 G1 X-0.9669 Y1.5636
N8530 X-0.9883 Y1.5115
N8535 G3 X-1.0715 Y1.2916 I4.5076 J-1.8322
N8540 G1 X-1.0755 Y1.2804
N8545 G3 X-1.1489 Y1.0532 I4.463 J-1.5675
N8550 G1 X-1.1524 Y1.0411
N8555 G3 X-1.2065 Y0.8374 I3.6041 J-1.0648
N8560 G1 X-1.2089 Y0.8271
N8565 G3 X-1.2402 Y0.6759 I2.7957 J-0.6581
N8570 G1 X-1.2464 Y0.6416
N8575 G3 X-1.2721 Y0.3608 I1.6163 J-0.2898
N8580 G1 X-1.2725 Y0.287
N8585 G3 X-1.174 Y-0.0737 I0.6953 J-0.0039
N8590 G1 X-1.1711 Y-0.0786
N8595 G3 X-0.7927 Y-0.3849 I0.6071 J0.363
N8600 G1 X-0.6776 Y-0.4243
N8605 G3 X-0.6218 Y-0.3896 I0.0137 J0.0401
N8610 G1 X-0.6054 Y-0.2648
N8615 G3 X-0.5942 Y-0.1556 I-1.95 J0.2561
N8620 G1 X-0.5931 Y-0.1419
N8625 G3 X-0.5833 Y0.0588 I-3.8834 J0.2908
N8630 G1 X-0.5828 Y0.0803
N8635 G3 X-0.5827 Y0.2929 I-4.6965 J0.1086
N8640 G1 X-0.583 Y0.3054
N8645 G3 X-0.5928 Y0.5016 I-3.5187 J-0.0779
N8650 G1 X-0.5938 Y0.5139
N8655 G3 X-0.6143 Y0.6916 I-2.3996 J-0.1875
N8660 G1 X-0.6179 Y0.7144
N8665 G2 X-0.5878 Y0.8027 I0.0982 J0.0159
N8670 G3 X-0.5622 Y0.8924 I-0.0624 J0.0664
N8675 X-0.5928 Y0.9919 I-1.2777 J-0.3386
N8680 G1 X-0.6015 Y1.0161
N8685 G3 X-0.6394 Y1.1038 I-0.9346 J-0.3512
N8690 G1 X-0.6412 Y1.1076
N8695 G3 X-0.8154 Y1.3434 I-0.7313 J-0.3579
N8700 G1 X-0.8276 Y1.3548
N8705 G2 X-0.8254 Y1.6155 I0.1214 J0.1293
N8710 G1 X-0.663 Y1.763
N8715 G2 X-0.5954 Y1.8093 I0.2021 J-0.2225
N8720 G1 X-0.5307 Y1.8416
N8725 G3 X-0.5207 Y1.8507 I-0.0112 J0.0224
N8730 G1 X-0.4823 Y1.912
N8735 G2 X-0.4216 Y1.9847 I0.2981 J-0.187
N8740 G1 X-0.1284 Y2.2528
N8745 G2 X0.1249 Y2.2532 I0.1268 J-0.1387
N8750 G1 X0.4306 Y1.9754
N8755 G2 X0.4833 Y1.9118 I-0.1973 J-0.2171
N8760 G1 X0.5207 Y1.8508
N8765 G3 X0.5307 Y1.8416 I0.0213 J0.0131
N8770 G1 X0.5957 Y1.8086
N8775 G2 X0.6804 Y1.7484 I-0.1617 J-0.3177
N8780 G1 X0.8324 Y1.603
N8785 G2 X0.8368 Y1.3682 I-0.1144 J-0.1196
N8790 G1 X0.7918 Y1.3218
N8795 G3 X0.7401 Y1.2635 I0.6181 J-0.5995
N8800 G1 X0.726 Y1.246
N8805 G3 X0.5751 Y0.9452 I0.6142 J-0.4963
N8810 G1 X0.5582 Y0.8791
N8815 G3 X0.5382 Y0.7893 I1.4389 J-0.3676
N8820 G1 X0.5362 Y0.7789
N8825 G3 X0.5178 Y0.6627 I1.8763 J-0.3573
N8830 G1 X0.5164 Y0.6515
N8835 G3 X0.503 Y0.52 I2.6234 J-0.3339
N8840 G1 X0.5015 Y0.5005
N8845 X0.4968 Y0.4234
N8850 X0.4957 Y0.3985
N8855 G3 X0.4915 Y0.1755 I4.437 J-0.1955
N8860 G1 X0.4916 Y0.1527
N8865 G3 X0.5021 Y-0.1353 I4.813 J0.0298
N8870 G1 X0.5028 Y-0.1465
N8875 G3 X0.5166 Y-0.2879 I2.2733 J0.1504
N8880 G1 X0.5349 Y-0.421
N8885 G3 X0.6304 Y-0.5057 I0.0971 J0.0134
N8890 G1 X0.6425 Y-0.5059
N8895 G3 X0.6943 Y-0.5026 I0.0053 J0.3293
N8900 G1 X0.6992 Y-0.5019
N8905 G3 X0.76 Y-0.4894 I-0.0712 J0.4994
N8910 G1 X0.766 Y-0.4877
N8915 G3 X0.8372 Y-0.4642 I-0.1809 J0.667
N8920 G1 X0.8421 Y-0.4623
N8925 G3 X0.9389 Y-0.4171 I-0.3075 J0.7848
N8930 G1 X0.9435 Y-0.4146
N8935 G3 X1.02 Y-0.3675 I-0.4196 J0.7675
N8940 G1 X1.0248 Y-0.3642
N8945 G3 X1.369 Y0.3545 I-0.4538 J0.6591
N8950 G1 X1.3594 Y0.4833
N8955 X1.3577 Y0.5003
N8960 G3 X1.3434 Y0.6147 I-2.0575 J-0.1995
N8965 G1 X1.3408 Y0.6321
N8970 X1.3245 Y0.7234
N8975 X1.3204 Y0.7439
N8980 G3 X1.2888 Y0.8837 I-3.0692 J-0.6203
N8985 G1 X1.2881 Y0.8867
N8990 G3 X1.196 Y1.2052 I-4.4528 J-1.1142
N8995 G1 X1.1925 Y1.216
N9000 G3 X1.0239 Y1.6611 I-5.0772 J-1.6681
N9005 G1 X0.975 Y1.7745
N9010 G2 X1.2198 Y1.9655 I0.1473 J0.0636
N9015 G1 X1.4 Y1.8275
N9020 G2 X1.849 Y1.3713 I-1.3962 J-1.8234
N9025 G1 X1.8502 Y1.3697
N9030 G2 X2.1155 Y0.9078 I-1.8431 J-1.3656
N9035 G1 X2.1164 Y0.9056
N9040 G2 X2.1523 Y0.8166 I-2.0824 J-0.8925
N9045 G1 X2.1648 Y0.783
N9050 G2 X2.236 Y0.5476 I-2.1487 J-0.7781
N9055 G1 X2.2367 Y0.5444
N9060 G2 X2.2773 Y0.337 I-2.1933 J-0.5362
N9065 G1 X2.2777 Y0.334
N9070 G2 X2.2932 Y-0.2009 I-2.2653 J-0.3335
N9075 G1 X2.293 Y-0.204
N9080 G2 X2.2708 Y-0.3784 I-2.2682 J0.2003
N9085 G1 X2.2645 Y-0.414
N9090 G2 X2.2379 Y-0.5396 I-2.2833 J0.4181
N9095 G1 X2.2278 Y-0.5798
N9100 G2 X2.1711 Y-0.7655 I-2.1708 J0.562
N9105 G1 X2.1695 Y-0.7699
N9110 G2 X2.0736 Y-0.9997 I-2.1249 J0.7516
N9115 G1 X2.0719 Y-1.0033
N9120 G2 X1.8351 Y-1.3899 I-2.0619 J0.9972
N9125 G1 X1.8332 Y-1.3923
N9130 G2 X1.6793 Y-1.5745 I-1.8087 J1.3715
N9135 G1 X1.6773 Y-1.5767
N9140 G2 X1.396 Y-1.8304 I-1.665 J1.5631
N9145 G1 X1.3669 Y-1.8522
N9150 G2 X1.2838 Y-1.9108 I-1.4185 J1.9236
N9155 G1 X1.2536 Y-1.9308
N9160 G2 X1.1581 Y-1.9895 I-1.2077 J1.8578
N9165 G1 X1.1236 Y-2.0092
N9170 G2 X1.0265 Y-2.0605 I-1.0964 J1.9573
N9175 G1 X1.0099 Y-2.0687
N9180 X0.9226 Y-2.1092
N9185 X0.906 Y-2.1163
N9190 G2 X0.698 Y-2.1936 I-0.9025 J2.1082
N9195 G1 X0.6914 Y-2.1957
N9200 G2 X0.5081 Y-2.2453 I-0.6562 J2.0651
N9205 G1 X0.5005 Y-2.247
N9210 G2 X0.2203 Y-2.2915 I-0.4968 J2.2217
N9215 G1 X0.179 Y-2.295
N9220 G2 X-0.2903 Y-2.2837 I-0.1795 J2.2813
N9225 G1 X-0.2921 Y-2.2834
N9230 G2 X-1.2754 Y-1.9166 I0.2914 J2.2819
N9235 G1 X-1.2769 Y-1.9155
N9240 G2 X-1.8989 Y-1.3015 I1.2711 J1.9097
N9245 G1 X-1.8998 Y-1.3002
N9250 G2 X-2.2203 Y-0.608 I1.8985 J1.2993
N9255 G1 X-2.2207 Y-0.6065
N9260 G2 X-2.2885 Y-0.2497 I2.215 J0.606
N9265 G1 X-2.2886 Y-0.2494
N9270 G2 X-2.2895 Y0.2396 I2.2815 J0.2489
N9275 G1 X-2.2892 Y0.2423
N9280 G2 X-2.2454 Y0.5074 I2.2679 J-0.2386
N9285 G1 X-2.2447 Y0.5107
N9290 G2 X-2.182 Y0.7336 I2.1996 J-0.498
N9295 G1 X-2.1808 Y0.7372
N9300 G2 X-2.1301 Y0.8728 I2.0943 J-0.7065
N9305 G1 X-2.128 Y0.8779
N9310 G2 X-2.0765 Y0.9937 I2.152 J-0.8868
N9315 G1 X-2.0607 Y1.0261
N9320 G2 X-2.0049 Y1.1313 I2.0109 J-1.0004
N9325 G1 X-1.9957 Y1.1474
N9330 X-1.9416 Y1.2369
N9335 X-1.9318 Y1.2521
N9340 G2 X-1.8451 Y1.3765 I1.9452 J-1.2615
N9345 G1 X-1.8233 Y1.4054
N9350 G2 X-1.4769 Y1.7658 I1.8228 J-1.4049
N9355 G1 X-1.4491 Y1.7888
N9360 X-1.4139 Y1.8167
N9365 X-1.2234 Y1.965
N9370 G2 X-0.9759 Y1.7714 I0.0995 J-0.1278
N9375 G1 X-1.0111 Y1.6921
N9380 G3 X-1.0686 Y1.5571 I4.1433 J-1.8426
N9385 G1 X-1.0731 Y1.546
N9390 G3 X-1.1525 Y1.3374 I4.5925 J-1.8668
N9395 G1 X-1.1556 Y1.3285
N9400 G3 X-1.2376 Y1.0762 I4.6485 J-1.6498
N9405 G1 X-1.2395 Y1.0697
N9410 G3 X-1.2983 Y0.8468 I3.7819 J-1.1173
N9415 G1 X-1.3081 Y0.8038
N9420 G3 X-1.3303 Y0.6921 I2.8946 J-0.6348
N9425 G1 X-1.3365 Y0.6577
N9430 G3 X-1.3627 Y0.2936 I1.7064 J-0.306
N9435 G1 X-1.3611 Y0.2476
N9440 G3 X-1.2168 Y-0.1744 I0.7744 J0.0291
N9445 G1 X-1.2135 Y-0.1791
N9450 G3 X-1.012 Y-0.3721 I0.6157 J0.4408
N9455 G1 X-0.9839 Y-0.3902
N9460 G3 X-0.8146 Y-0.4719 I0.4525 J0.7212
N9465 G1 X-0.7952 Y-0.4785
N9470 X-0.7663 Y-0.487
N9475 X-0.6772 Y-0.5109
N9480 G3 X-0.549 Y-0.4393 I0.0273 J0.1018
N9485 G1 X-0.5362 Y-0.3956
N9490 X-0.5301 Y-0.3688
N9495 G3 X-0.5155 Y-0.2834 I-1.0096 J0.217
N9500 G1 X-0.5139 Y-0.2711
N9505 G3 X-0.5029 Y-0.1624 I-2.0414 J0.2624
N9510 G1 X-0.5018 Y-0.1488
N9515 G3 X-0.492 Y0.0491 I-3.9748 J0.2977
N9520 G1 X-0.4915 Y0.0657
N9525 G3 X-0.4912 Y0.2983 I-4.9305 J0.1235
N9530 G1 X-0.4913 Y0.3045
N9535 G3 X-0.5017 Y0.5115 I-3.7124 J-0.0822
N9540 G1 X-0.5023 Y0.5188
N9545 G3 X-0.5241 Y0.7076 I-2.5485 J-0.199
N9550 G1 X-0.525 Y0.7135
N9555 G3 X-0.5536 Y0.8585 I-1.7274 J-0.2651
N9560 G1 X-0.5622 Y0.8924
N9565 G2 X-0.5402 Y0.9839 I0.0955 J0.0254
N9570 G1 X-0.5401 Y0.984
N9575 G3 X-0.5239 Y1.0768 I-0.066 J0.0593
N9580 X-0.5627 Y1.1618 I-1.0466 J-0.4268
N9585 X-0.6176 Y1.2554 I-0.8224 J-0.4195
N9590 X-0.694 Y1.3526 I-0.6834 J-0.4582
N9595 X-0.7731 Y1.4269 I-0.5608 J-0.518
N9600 G1 X-0.7803 Y1.4329
N9605 X-0.7875 Y1.4399
N9610 X-0.7897 Y1.4425
N9615 X-0.795 Y1.4503
N9620 X-0.7987 Y1.4581
N9625 X-0.8012 Y1.4659
N9630 X-0.8026 Y1.4737
N9635 X-0.8031 Y1.4815
N9640 X-0.8025 Y1.4893
N9645 X-0.801 Y1.4971
N9650 X-0.7984 Y1.5049
N9655 X-0.7945 Y1.5127
N9660 X-0.7875 Y1.5223
N9665 X-0.773 Y1.5361
N9670 X-0.5536 Y1.7369
N9675 X-0.5446 Y1.7432
N9680 X-0.538 Y1.7465
N9685 X-0.5302 Y1.7493
N9690 X-0.5224 Y1.7509
N9695 X-0.5146 Y1.7516
N9700 X-0.5068 Y1.7512
N9705 X-0.499 Y1.7499
N9710 X-0.4912 Y1.7475
N9715 X-0.4835 Y1.744
N9720 X-0.4756 Y1.7388
N9725 X-0.2968 Y1.5878
N9730 X-0.2966 Y1.5881
N9735 X-0.2987 Y1.5985
N9740 X-0.3024 Y1.6141
N9745 X-0.3068 Y1.6297
N9750 X-0.3119 Y1.6453
N9755 X-0.3197 Y1.6651
N9760 X-0.3249 Y1.6764
N9765 X-0.3353 Y1.695
N9770 X-0.3436 Y1.7076
N9775 X-0.3555 Y1.7232
N9780 X-0.37 Y1.7388
N9785 X-0.3821 Y1.7502
N9790 G3 X-0.4077 Y1.77 I-0.2164 J-0.2527
N9795 G1 X-0.4133 Y1.7747
N9800 X-0.4184 Y1.7802
N9805 X-0.4224 Y1.7856
N9810 X-0.4261 Y1.7919
N9815 X-0.4299 Y1.8012
N9820 X-0.4318 Y1.809
N9825 X-0.4327 Y1.8168
N9830 X-0.4326 Y1.8246
N9835 X-0.4316 Y1.8324
N9840 X-0.4289 Y1.8419
N9845 X-0.4262 Y1.848
N9850 X-0.4216 Y1.8558
N9855 X-0.4152 Y1.8636
N9860 X-0.039 Y2.2079
N9865 X-0.0312 Y2.2132
N9870 X-0.0234 Y2.217
N9875 X-0.0156 Y2.2196
N9880 X-0.0078 Y2.2211
N9885 X0. Y2.2216
N9890 X0.0078 Y2.2211
N9895 X0.0156 Y2.2196
N9900 X0.0234 Y2.217
N9905 X0.0312 Y2.2132
N9910 X0.0405 Y2.2067
N9915 X0.4152 Y1.8636
N9920 X0.4216 Y1.8558
N9925 X0.4262 Y1.848
N9930 X0.4289 Y1.8419
N9935 X0.4316 Y1.8324
N9940 X0.4326 Y1.8246
N9945 X0.4327 Y1.8168
N9950 X0.4318 Y1.809
N9955 X0.4299 Y1.8012
N9960 X0.4261 Y1.792
N9965 X0.4224 Y1.7856
N9970 X0.4184 Y1.7802
N9975 X0.4134 Y1.7749
N9980 X0.4081 Y1.77
N9985 G3 X0.3771 Y1.7388 I0.2213 J-0.2508
N9990 G1 X0.3644 Y1.7232
N9995 X0.3509 Y1.7042
N10000 X0.3433 Y1.692
N10005 X0.3347 Y1.6764
N10010 X0.3272 Y1.6609
N10015 X0.3197 Y1.6432
N10020 G3 X0.3046 Y1.5964 I0.4248 J-0.1627
N10025 G1 X0.4756 Y1.7389
N10030 X0.4835 Y1.744
N10035 X0.4912 Y1.7475
N10040 X0.499 Y1.7499
N10045 X0.5068 Y1.7512
N10050 X0.5146 Y1.7516
N10055 X0.5224 Y1.7509
N10060 X0.5302 Y1.7493
N10065 X0.538 Y1.7465
N10070 X0.5446 Y1.7433
N10075 X0.5536 Y1.7369
N10080 X0.773 Y1.5361
N10085 X0.7875 Y1.5223
N10090 X0.7945 Y1.5127
N10095 X0.7984 Y1.5049
N10100 X0.801 Y1.4971
N10105 X0.8025 Y1.4893
N10110 X0.8031 Y1.4815
N10115 X0.8026 Y1.4737
N10120 X0.8012 Y1.4659
N10125 X0.7987 Y1.4581
N10130 X0.795 Y1.4503
N10135 X0.7897 Y1.4425
N10140 X0.7875 Y1.4399
N10145 X0.7802 Y1.4328
N10150 X0.7719 Y1.426
N10155 G3 X0.6472 Y1.2974 I0.4788 J-0.5896
N10160 X0.5787 Y1.193 I0.6726 J-0.516
N10165 X0.5261 Y1.0838 I0.8847 J-0.4936
N10170 X0.4823 Y0.9591 I1.1578 J-0.4765
N10175 X0.4445 Y0.802 I1.5687 J-0.4605
N10180 G1 X0.4417 Y0.7875
N10185 G3 X0.4234 Y0.6695 I2.152 J-0.3935
N10190 X0.4073 Y0.5068 I2.8833 J-0.3684
N10195 G1 X0.4025 Y0.4289
N10200 G3 X0.3971 Y0.1637 I4.701 J-0.2293
N10205 X0.4082 Y-0.1482 I5.05 J0.0239
N10210 X0.4234 Y-0.3041 I2.5029 J0.1652
N10215 X0.4394 Y-0.3977 I1.1562 J0.1498
N10220 X0.4618 Y-0.4756 I0.5402 J0.1125
N10225 G1 X0.4681 Y-0.4912
N10230 X0.4756 Y-0.5072
N10235 X0.4842 Y-0.5224
N10240 X0.4948 Y-0.538
N10245 X0.5068 Y-0.552
N10250 G3 X0.5268 Y-0.5692 I0.1048 J0.1014
N10255 G1 X0.538 Y-0.5764
N10260 X0.5554 Y-0.5848
N10265 X0.5692 Y-0.5898
N10270 X0.5848 Y-0.594
N10275 X0.6004 Y-0.5971
N10280 X0.616 Y-0.599
N10285 X0.6316 Y-0.6001
N10290 X0.6472 Y-0.6005
N10295 X0.6628 Y-0.6001
N10300 X0.6784 Y-0.5993
N10305 X0.694 Y-0.5978
N10310 G3 X0.7875 Y-0.5798 I-0.0705 J0.6187
N10315 X0.8831 Y-0.5476 I-0.2137 J0.7925
N10320 X0.9747 Y-0.5051 I-0.3485 J0.8701
N10325 X1.1348 Y-0.3996 I-0.4587 J0.8701
N10330 X1.206 Y-0.3353 I-0.5851 J0.7204
N10335 X1.271 Y-0.2623 I-0.635 J0.6302
N10340 G1 X1.2868 Y-0.2417
N10345 X1.3022 Y-0.2202
N10350 G3 X1.3968 Y-0.039 I-0.6817 J0.4713
N10355 X1.4401 Y0.117 I-0.8652 J0.3241
N10360 X1.4581 Y0.2684 I-1.1228 J0.2107
N10365 X1.4586 Y0.4133 I-1.4394 J0.0776
N10370 X1.4535 Y0.4912 I-1.5815 J-0.0652
N10375 X1.434 Y0.6472 I-2.2644 J-0.2043
N10380 G1 X1.4261 Y0.694
N10385 X1.4174 Y0.7408
N10390 G3 X1.3801 Y0.9079 I-3.3742 J-0.6635
N10395 X1.346 Y1.0371 I-4.2483 J-1.0554
N10400 G1 X1.328 Y1.0994
N10405 G3 X1.2841 Y1.2398 I-5.4761 J-1.6354
N10410 X1.0994 Y1.7245 I-5.2272 J-1.7141
N10415 G1 X1.0789 Y1.7707
N10420 X1.0527 Y1.8285
N10425 X1.0513 Y1.8324
N10430 X1.0493 Y1.8402
N10435 X1.0484 Y1.848
N10440 X1.0485 Y1.8558
N10445 X1.0495 Y1.8636
N10450 X1.0527 Y1.8742
N10455 X1.0548 Y1.8792
N10460 X1.0594 Y1.887
N10465 X1.0658 Y1.8948
N10470 X1.0682 Y1.8972
N10475 X1.076 Y1.9033
N10480 X1.0838 Y1.9078
N10485 X1.0902 Y1.9104
N10490 X1.0994 Y1.9128
N10495 X1.1072 Y1.9138
N10500 X1.115
N10505 X1.1228 Y1.9127
N10510 X1.1315 Y1.9104
N10515 X1.1388 Y1.9073
N10520 X1.1462 Y1.903
N10525 X1.1849 Y1.8792
N10530 G2 X1.2785 Y1.8168 I-1.3037 J-2.057
N10535 X1.5442 Y1.5971 I-1.2912 J-1.8322
N10540 G1 X1.5744 Y1.5673
N10545 G2 X1.7856 Y1.3215 I-1.5707 J-1.5632
N10550 X1.848 Y1.2329 I-1.776 J-1.3166
N10555 G1 X1.874 Y1.193
N10560 G2 X1.9215 Y1.115 I-2.108 J-1.3364
N10565 G1 X1.926 Y1.1071
N10570 G2 X2.0195 Y0.9254 I-1.9188 J-1.103
N10575 G1 X2.0394 Y0.8811
N10580 G2 X2.0831 Y0.7719 I-2.3371 J-0.9997
N10585 X2.17 Y0.4756 I-2.0947 J-0.7752
N10590 X2.2027 Y0.2885 I-2.1267 J-0.4675
N10595 G1 X2.2083 Y0.2417
N10600 X2.2129 Y0.1949
N10605 X2.2176 Y0.1326
N10610 G2 X2.2215 Y-0.0078 I-2.3723 J-0.1366
N10615 X2.2165 Y-0.1482 I-2.2091 J0.0084
N10620 G1 X2.2155 Y-0.1637
N10625 X2.2115 Y-0.2105
N10630 X2.2079 Y-0.2446
N10635 X2.2039 Y-0.2787
N10640 G2 X2.1885 Y-0.3821 I-2.3952 J0.3056
N10645 X2.1554 Y-0.538 I-2.3216 J0.4105
N10650 G1 X2.1514 Y-0.5536
N10655 G2 X2.0943 Y-0.7408 I-2.0942 J0.5358
N10660 G1 X2.083 Y-0.772
N10665 X2.0713 Y-0.8031
N10670 X2.0526 Y-0.8499
N10675 X2.0358 Y-0.889
N10680 X2.0184 Y-0.9279
N10685 G2 X1.77 Y-1.3424 I-2.0185 J0.9279
N10690 G1 X1.7406 Y-1.3803
N10695 X1.7156 Y-1.4113
N10700 G2 X1.6484 Y-1.4893 I-1.8822 J1.5554
N10705 G1 X1.6196 Y-1.5205
N10710 G2 X1.3334 Y-1.7768 I-1.6197 J1.5208
N10715 G1 X1.3022 Y-1.7999
N10720 G2 X1.2242 Y-1.8538 I-1.6127 J2.2491
N10725 X1.1071 Y-1.926 I-1.2541 J1.9039
N10730 G1 X1.0994 Y-1.9304
N10735 G2 X0.9747 Y-1.9963 I-1.138 J2.003
N10740 G1 X0.9279 Y-2.0184
N10745 X0.8908 Y-2.0351
N10750 G2 X0.6472 Y-2.1251 I-0.9016 J2.0659
N10755 G1 X0.6004 Y-2.1388
N10760 X0.5536 Y-2.1515
N10765 X0.5068 Y-2.1629
N10770 G2 X0.1949 Y-2.213 I-0.5075 J2.1647
N10775 G1 X0.1482 Y-2.2166
N10780 X0.117 Y-2.2184
N10785 G2 X-0.2261 Y-2.21 I-0.1174 J2.2046
N10790 X-0.3665 Y-2.191 I0.2101 J2.0825
N10795 G1 X-0.3821 Y-2.1885
N10800 X-0.4445 Y-2.1766
N10805 X-0.4912 Y-2.1666
N10810 X-0.5536 Y-2.1515
N10815 X-0.5692 Y-2.1472
N10820 G2 X-0.7875 Y-2.0773 I0.5637 J2.1346
N10825 G1 X-0.8343 Y-2.0589
N10830 X-0.8811 Y-2.0394
N10835 G2 X-0.9909 Y-1.9883 I0.9756 J2.2428
N10840 X-1.1596 Y-1.8948 I0.9977 J1.9974
N10845 X-1.2398 Y-1.8433 I1.0727 J1.7612
N10850 G1 X-1.2866 Y-1.811
N10855 G2 X-1.3646 Y-1.7531 I1.4023 J1.9689
N10860 G1 X-1.4021 Y-1.7232
N10865 X-1.4395 Y-1.692
N10870 X-1.4754 Y-1.6609
N10875 X-1.5205 Y-1.6196
N10880 G2 X-1.5829 Y-1.5587 I1.5411 J1.6405
N10885 G1 X-1.6141 Y-1.5264
N10890 G2 X-1.692 Y-1.4395 I1.7957 J1.6898
N10895 G1 X-1.7161 Y-1.4107
N10900 X-1.7398 Y-1.3814
N10905 X-1.7651 Y-1.349
N10910 X-1.7999 Y-1.3022
N10915 X-1.8329 Y-1.2554
N10920 G2 X-1.9029 Y-1.1462 I1.8272 J1.2496
N10925 G1 X-1.926 Y-1.1072
N10930 G2 X-1.9886 Y-0.9903 I2.0231 J1.159
N10935 X-2.0526 Y-0.8499 I2.0778 J1.0312
N10940 X-2.1473 Y-0.5692 I2.0549 J0.85
N10945 G1 X-2.1554 Y-0.538
N10950 G2 X-2.1797 Y-0.4289 I2.3443 J0.5799
N10955 G1 X-2.1885 Y-0.3821
N10960 X-2.1984 Y-0.3197
N10965 X-2.2047 Y-0.2729
N10970 X-2.2115 Y-0.2105
N10975 G2 X-2.2212 Y-0.039 I2.2584 J0.2132
N10980 X-2.2199 Y0.0858 I2.3966 J0.0366
N10985 G1 X-2.2176 Y0.1326
N10990 X-2.2142 Y0.1793
N10995 G2 X-2.1666 Y0.4912 I2.2201 J-0.1797
N11000 G1 X-2.1554 Y0.538
N11005 X-2.1389 Y0.6004
N11010 G2 X-2.1052 Y0.7096 I2.3454 J-0.664
N11015 X-2.0546 Y0.8447 I2.1402 J-0.7244
N11020 G1 X-2.0394 Y0.8811
N11025 X-2.0254 Y0.9124
N11030 X-2.0112 Y0.9435
N11035 X-1.9963 Y0.9747
N11040 G2 X-1.926 Y1.1071 I2.0561 J-1.0072
N11045 G1 X-1.903 Y1.1462
N11050 X-1.874 Y1.193
N11055 G2 X-1.77 Y1.3425 I1.9599 J-1.2527
N11060 G1 X-1.7408 Y1.3801
N11065 X-1.7156 Y1.4113
N11070 G2 X-1.6484 Y1.4893 I1.8664 J-1.5417
N11075 G1 X-1.6197 Y1.5205
N11080 X-1.5898 Y1.5517
N11085 G2 X-1.5205 Y1.6197 I1.693 J-1.657
N11090 X-1.4425 Y1.6894 I1.5772 J-1.6855
N11095 G1 X-1.412 Y1.7151
N11100 G2 X-1.3022 Y1.7999 I1.4992 J-1.828
N11105 X-1.1462 Y1.903 I1.319 J-1.8256
N11110 G1 X-1.1388 Y1.9073
N11115 X-1.1306 Y1.9107
N11120 X-1.1228 Y1.9127
N11125 X-1.115 Y1.9138
N11130 X-1.1072
N11135 X-1.0994 Y1.9128
N11140 X-1.0902 Y1.9104
N11145 X-1.0838 Y1.9078
N11150 X-1.076 Y1.9033
N11155 X-1.0682 Y1.8972
N11160 X-1.0658 Y1.8948
N11165 X-1.0594 Y1.887
N11170 X-1.0548 Y1.8792
N11175 X-1.0527 Y1.8742
N11180 X-1.0495 Y1.8636
N11185 X-1.0485 Y1.8558
N11190 X-1.0484 Y1.848
N11195 X-1.0493 Y1.8402
N11200 X-1.0513 Y1.8324
N11205 X-1.0527 Y1.8285
N11210 X-1.058 Y1.8168
N11215 G3 X-1.1462 Y1.6166 I4.1907 J-1.9675
N11220 G1 X-1.1774 Y1.5398
N11225 G3 X-1.2431 Y1.3646 I5.1771 J-2.0401
N11230 X-1.3292 Y1.0994 I4.9157 J-1.7443
N11235 X-1.368 Y0.9591 I4.6482 J-1.3596
N11240 G1 X-1.3836 Y0.8967
N11245 X-1.3957 Y0.8448
N11250 G3 X-1.4269 Y0.6884 I3.2014 J-0.7195
N11255 G1 X-1.4336 Y0.6472
N11260 G3 X-1.448 Y0.538 I2.4283 J-0.3753
N11265 X-1.4559 Y0.4445 I2.1117 J-0.2245
N11270 X-1.4585 Y0.3665 I1.9251 J-0.1052
N11275 X-1.4565 Y0.2729 I1.4772 J-0.0146
N11280 X-1.4378 Y0.117 I1.1681 J0.0612
N11285 X-1.3883 Y-0.0546 I0.924 J0.1734
N11290 G1 X-1.3752 Y-0.0858
N11295 X-1.3646 Y-0.1089
N11300 G3 X-1.3022 Y-0.2169 I0.7668 J0.3706
N11305 G1 X-1.2866 Y-0.239
N11310 G3 X-1.1462 Y-0.3887 I0.6999 J0.5157
N11315 G1 X-1.1306 Y-0.4016
N11320 G3 X-1.0371 Y-0.4684 I0.5962 J0.7365
N11325 X-0.8343 Y-0.5651 I0.5099 J0.8084
N11330 X-0.7564 Y-0.5866 I0.236 J0.7036
N11335 X-0.6784 Y-0.5981 I0.1185 J0.5325
N11340 G1 X-0.6628 Y-0.5989
N11345 X-0.6472 Y-0.599
N11350 X-0.6316 Y-0.5985
N11355 X-0.616 Y-0.5973
N11360 X-0.6004 Y-0.5952
N11365 X-0.5848 Y-0.592
N11370 X-0.5692 Y-0.5875
N11375 X-0.5613 Y-0.5848
N11380 X-0.5536 Y-0.5816
N11385 X-0.538 Y-0.5736
N11390 X-0.5309 Y-0.5692
N11395 X-0.5224 Y-0.563
N11400 X-0.5118 Y-0.5536
N11405 X-0.5068 Y-0.5486
N11410 X-0.4977 Y-0.538
N11415 X-0.4919 Y-0.5304
N11420 X-0.4865 Y-0.5224
N11425 X-0.4756 Y-0.5034
N11430 X-0.4698 Y-0.4912
N11435 X-0.4601 Y-0.4679
N11440 X-0.4574 Y-0.46
N11445 G3 X-0.4398 Y-0.3977 I-0.5283 J0.1825
N11450 X-0.423 Y-0.3041 I-1.0999 J0.2459
N11455 X-0.4082 Y-0.1637 I-2.2702 J0.3099
N11460 X-0.3973 Y0.0546 I-4.273 J0.3228
N11465 X-0.3968 Y0.3041 I-5.2637 J0.135
N11470 G1 X-0.3988 Y0.3665
N11475 X-0.4025 Y0.4445
N11480 X-0.4078 Y0.5224
N11485 G3 X-0.4312 Y0.7252 I-2.7408 J-0.2139
N11490 X-0.4657 Y0.8967 I-1.8842 J-0.2895
N11495 X-0.5085 Y1.0371 I-1.4261 J-0.3587
N11500 G1 X-0.516 Y1.057
N11505 X-0.5239 Y1.0768
N11510 X-0.5252 Y1.0793 Z-0.1573
N11515 X-0.5269 Y1.0815 Z-0.1569
N11520 X-0.529 Y1.0832 Z-0.1561
N11525 X-0.5313 Y1.0844 Z-0.1551
N11530 X-0.5337 Y1.085 Z-0.1539
N11535 X-0.5362 Z-0.1526
N11540 X-0.5386 Y1.0844 Z-0.1512
N11545 X-0.5405 Y1.0837 Z-0.1497
N11550 X-0.5422 Y1.083 Z-0.1478
N11555 X-0.5434 Y1.0825 Z-0.1455
N11560 X-0.5441 Y1.0822 Z-0.143
N11565 X-0.5444 Y1.0821 Z-0.1404
N11570 G0 Z0.1969
N11575 G1 X0.0305 Y1.7831 F140.
N11580 G0 Z0.0135
N11585 G1 Z-0.0258 F13.123
N11590 Z-0.0269 F39.37
N11595 X0.0301 Y1.783 Z-0.0297
N11600 X0.0295 Y1.7822 Z-0.0323
N11605 X0.0287 Y1.781 Z-0.0347
N11610 X0.0276 Y1.7793 Z-0.0367
N11615 X0.0265 Y1.7772 Z-0.0381
N11620 X0.0252 Y1.7749 Z-0.0391
N11625 X0.024 Y1.7724 Z-0.0394
N11630 X0.0184 Y1.7612
N11635 G2 X-0.0122 Y1.763 I-0.0149 J0.0074
N11640 G1 X-0.016 Y1.7732
N11645 G2 X-0.0094 Y1.7928 I0.0155 J0.0056
N11650 G1 X-0.0053 Y1.7954
N11655 G2 X0.0201 Y1.7815 I0.0089 J-0.0139
N11660 G1 Y1.7687
N11665 X0.0199 Y1.7661
N11670 X0.0194 Y1.7636
N11675 X0.0184 Y1.7612
N11680 G3 X0.0392 Y1.738 I0.015 J-0.0075
N11685 G2 X0.0703 Y1.7364 I0.0138 J-0.038
N11690 G1 X0.0816 Y1.7311
N11695 X0.0841 Y1.7299 Z-0.0391
N11700 X0.0865 Y1.7288 Z-0.0381
N11705 X0.0887 Y1.7279 Z-0.0367
N11710 X0.0906 Y1.7272 Z-0.0347
N11715 X0.092 Y1.7268 Z-0.0323
N11720 X0.093 Y1.7266 Z-0.0297
N11725 X0.0934 Y1.7267 Z-0.0269
N11730 Z-0.0258
N11735 G0 Z0.1969
N11740 G1 X-1.4068 Y0.0238 F140.
N11745 G0 Z0.0135
N11750 G1 Z-0.0258 F13.123
N11755 Z-0.0269 F39.37
N11760 X-1.4071 Y0.0235 Z-0.0297
N11765 X-1.4073 Y0.0225 Z-0.0323
N11770 X-1.4074 Y0.021 Z-0.0347
N11775 X-1.4075 Y0.0191 Z-0.0367
N11780 X-1.4076 Y0.0167 Z-0.0381
N11785 Y0.014 Z-0.0391
N11790 X-1.4075 Y0.0113 Z-0.0394
N11795 X-1.407 Y-0.0012
N11800 G2 X-1.414 Y-0.0887 I-0.379 J-0.0136
N11805 G3 X-1.4008 Y-0.1754 I0.1263 J-0.0251
N11810 X-1.0259 Y-0.549 I0.8191 J0.447
N11815 G1 X-1.0147 Y-0.555
N11820 G3 X-0.8024 Y-0.64 I0.4731 J0.8741
N11825 G1 X-0.7219 Y-0.6619
N11830 G3 X-0.3914 Y-0.4661 I0.0702 J0.2584
N11835 G1 X-0.3765 Y-0.404
N11840 G3 X-0.3572 Y-0.2897 I-0.8194 J0.1968
N11845 G1 X-0.3529 Y-0.2463
N11850 G3 X-0.3347 Y0.337 I-4.3514 J0.428
N11855 G1 X-0.3367 Y0.3936
N11860 G3 X-0.3868 Y0.8333 I-2.8418 J-0.101
N11865 G1 X-0.3869 Y0.834
N11870 G3 X-0.4993 Y1.1756 I-1.3988 J-0.2709
N11875 G1 X-0.4996 Y1.1761
N11880 G3 X-0.6674 Y1.4154 I-0.7939 J-0.3786
N11885 G1 X-0.7158 Y1.4644
N11890 G2 X-0.7147 Y1.5005 I0.0178 J0.0176
N11895 G1 X-0.5294 Y1.6675
N11900 G2 X-0.496 Y1.6676 I0.0167 J-0.0186
N11905 G1 X-0.3506 Y1.5387
N11910 G3 X-0.2672 Y1.5311 I0.0468 J0.0528
N11915 G1 X-0.26 Y1.5355
N11920 G3 X-0.2323 Y1.6249 I-0.0366 J0.0603
N11925 G1 X-0.2607 Y1.6877
N11930 G3 X-0.3173 Y1.7738 I-0.298 J-0.1346
N11935 G1 X-0.346 Y1.8051
N11940 G2 X-0.3443 Y1.8405 I0.0185 J0.0169
N11945 G1 X-0.0169 Y2.137
N11950 G2 X0.0167 I0.0168 J-0.0185
N11955 G1 X0.3452 Y1.8385
N11960 G2 X0.3481 Y1.8047 I-0.0168 J-0.0185
N11965 G1 X0.3168 Y1.7645
N11970 G3 X0.2792 Y1.7062 I0.3057 J-0.2385
N11975 G1 X0.2428 Y1.637
N11980 G3 X0.2663 Y1.5458 I0.0621 J-0.0326
N11985 G1 X0.2732 Y1.5412
N11990 G3 X0.3581 Y1.547 I0.0387 J0.0586
N11995 G1 X0.4958 Y1.6676
N12000 G2 X0.5289 Y1.6674 I0.0165 J-0.0188
N12005 G1 X0.7149 Y1.5009
N12010 G2 X0.7153 Y1.4641 I-0.0167 J-0.0186
N12015 G1 X0.7044 Y1.4539
N12020 G3 X0.4348 Y1.0166 I0.6753 J-0.7182
N12025 G1 X0.4223 Y0.9745
N12030 G3 X0.3514 Y0.5948 I1.7742 J-0.5275
N12035 G1 X0.3487 Y0.5604
N12040 G3 X0.3397 Y-0.0562 I4.6993 J-0.3765
N12045 G1 X0.3435 Y-0.1313
N12050 G3 X0.3792 Y-0.4152 I1.9312 J0.0985
N12055 G1 X0.3837 Y-0.4365
N12060 G3 X0.4118 Y-0.5191 I0.4108 J0.0938
N12065 G1 X0.4164 Y-0.529
N12070 G3 X0.7012 Y-0.6655 I0.2248 J0.1036
N12075 G1 X0.7918 Y-0.6429
N12080 G3 X0.9318 Y-0.5961 I-0.2294 J0.918
N12085 G1 X0.939 Y-0.593
N12090 G3 X1.5241 Y0.3254 I-0.375 J0.8845
N12095 G1 X1.5215 Y0.4
N12100 G3 X1.4696 Y0.7997 I-2.1546 J-0.0761
N12105 G1 X1.4667 Y0.8129
N12110 G3 X1.1485 Y1.7694 I-4.9962 J-1.1306
N12115 G1 X1.1331 Y1.804
N12120 G2 X1.1564 Y1.8223 I0.014 J0.0062
N12125 G1 X1.3235 Y1.6918
N12130 G2 X1.51 Y1.5272 I-1.2731 J-1.6302
N12135 G1 X1.5162 Y1.5211
N12140 G2 X1.6247 Y1.4044 I-1.4795 J-1.4857
N12145 G1 X1.6276 Y1.4011
N12150 G2 X2.1 Y0.4494 I-1.6221 J-1.3983
N12155 G1 X2.1014 Y0.443
N12160 G2 X2.1219 Y0.3307 I-1.9161 J-0.4086
N12165 G1 X2.1234 Y0.3215
N12170 G2 X2.0763 Y-0.5491 I-2.1084 J-0.3225
N12175 G1 X2.0754 Y-0.5525
N12180 G2 X1.6977 Y-1.3154 I-2.0732 J0.5513
N12185 G1 X1.6965 Y-1.317
N12190 G2 X1.0464 Y-1.8754 I-1.6898 J1.3097
N12195 G1 X1.039 Y-1.8795
N12200 G2 X0.9457 Y-1.9282 I-0.9645 J1.733
N12205 G1 X0.9393 Y-1.9313
N12210 G2 X0.8251 Y-1.9828 I-0.8735 J1.7862
N12215 G1 X0.8178 Y-1.9858
N12220 G2 X0.7091 Y-2.0271 I-0.7673 J1.8572
N12225 G1 X0.7018 Y-2.0296
N12230 G2 X-0.6006 Y-2.0619 I-0.7017 J2.0223
N12235 G1 X-0.6071 Y-2.06
N12240 G2 X-0.7738 Y-2.0033 I0.5751 J1.967
N12245 G1 X-0.779 Y-2.0013
N12250 G2 X-1.844 Y-1.1008 I0.7756 J1.9973
N12255 G1 X-1.8455 Y-1.0983
N12260 G2 X-2.1073 Y0.4142 I1.8421 J1.0978
N12265 G1 X-2.1055 Y0.4234
N12270 G2 X-2.0729 Y0.5617 I1.9034 J-0.3752
N12275 G1 X-2.0706 Y0.5699
N12280 G2 X-2.0337 Y0.6898 I1.983 J-0.5444
N12285 G1 X-2.032 Y0.695
N12290 G2 X-1.3264 Y1.689 I2.0285 J-0.6924
N12295 G1 X-1.1565 Y1.8223
N12300 G2 X-1.1333 Y1.804 I0.0094 J-0.012
N12305 G1 X-1.1485 Y1.7701
N12310 G3 X-1.3549 Y1.2299 I4.6315 J-2.0793
N12315 G1 X-1.3733 Y1.172
N12320 G3 X-1.5107 Y0.5427 I3.3035 J-1.051
N12325 G1 X-1.5108 Y0.5421
N12330 G3 X-1.5064 Y0.1464 I1.4925 J-0.1812
N12335 G1 X-1.5053 Y0.1385
N12340 G3 X-1.4008 Y-0.1754 I0.9236 J0.1331
N12345 G2 X-1.3876 Y-0.2587 I-0.1099 J-0.06
N12350 G3 X-1.3679 Y-0.3406 I0.1007 J-0.0191
N12355 X-0.8532 Y-0.6944 I0.8124 J0.6305
N12360 G1 X-0.757 Y-0.7235
N12365 G3 X-0.4855 Y-0.6907 I0.0983 J0.3251
N12370 G1 X-0.4797 Y-0.6872
N12375 G3 X-0.3177 Y-0.4504 I-0.1731 J0.2922
N12380 G1 X-0.3018 Y-0.354
N12385 G3 X-0.29 Y-0.2591 I-1.1774 J0.1946
N12390 G1 X-0.2841 Y-0.1888
N12395 G3 X-0.2716 Y0.3435 I-4.4202 J0.3705
N12400 G1 X-0.2736 Y0.4
N12405 G3 X-0.3244 Y0.844 I-2.887 J-0.1054
N12410 G1 X-0.325 Y0.8469
N12415 G3 X-0.4339 Y1.1851 I-1.4542 J-0.2817
N12420 G1 X-0.4371 Y1.1921
N12425 G3 X-0.5705 Y1.4028 I-0.8564 J-0.3946
N12430 G1 X-0.6209 Y1.463
N12435 G2 X-0.6183 Y1.4979 I0.0192 J0.016
N12440 G1 X-0.5288 Y1.5767
N12445 G2 X-0.4953 Y1.5763 I0.0165 J-0.0188
N12450 G1 X-0.4051 Y1.4929
N12455 G3 X-0.2156 Y1.4868 I0.0982 J0.1062
N12460 G1 X-0.2118 Y1.4899
N12465 G3 X-0.1778 Y1.6739 I-0.091 J0.112
N12470 G1 X-0.2207 Y1.7483
N12475 X-0.2543 Y1.8043
N12480 G2 X-0.2496 Y1.8358 I0.0214 J0.0129
N12485 G1 X-0.0169 Y2.0456
N12490 G2 X0.0166 I0.0167 J-0.0186
N12495 G1 X0.2534 Y1.8307
N12500 G2 X0.258 Y1.7993 I-0.0168 J-0.0185
N12505 G1 X0.1884 Y1.684
N12510 G3 X0.2163 Y1.5022 I0.1228 J-0.0742
N12515 G1 X0.2199 Y1.499
N12520 G3 X0.4126 Y1.5009 I0.0953 J0.108
N12525 G1 X0.4948 Y1.5765
N12530 G2 X0.5282 Y1.5769 I0.0169 J-0.0184
N12535 G1 X0.6174 Y1.499
N12540 G2 X0.6197 Y1.4636 I-0.0164 J-0.0188
N12545 G1 X0.6089 Y1.4514
N12550 G3 X0.3324 Y0.8899 I0.8927 J-0.7883
N12555 G1 X0.3172 Y0.8114
N12560 G3 X0.2883 Y0.5998 I1.8792 J-0.3645
N12565 G1 X0.2855 Y0.5654
N12570 G3 X0.2767 Y-0.0629 I4.7624 J-0.3815
N12575 G1 X0.2805 Y-0.1375
N12580 G3 X0.2897 Y-0.2512 I1.9745 J0.1021
N12585 G1 X0.309 Y-0.4265
N12590 G3 X0.7691 Y-0.7227 I0.3501 J0.0385
N12595 G1 X0.8754 Y-0.6877
N12600 G3 X1.5883 Y0.3665 I-0.3245 J0.9875
N12605 G1 X1.5825 Y0.4562
N12610 G3 X1.5163 Y0.8808 I-2.3698 J-0.1523
N12615 G1 X1.5007 Y0.943
N12620 G3 X1.3001 Y1.5708 I-5.0146 J-1.2558
N12625 G1 X1.2865 Y1.6056
N12630 G2 X1.3104 Y1.6213 I0.0136 J0.0053
N12635 G1 X1.4638 Y1.4685
N12640 G2 X1.5685 Y1.356 I-1.4272 J-1.4332
N12645 G1 X1.5714 Y1.3526
N12650 G2 X2.0275 Y0.4339 I-1.5659 J-1.3499
N12655 G1 X2.0288 Y0.4276
N12660 G2 X2.0486 Y0.3195 I-1.8437 J-0.3931
N12665 G1 X2.05 Y0.3103
N12670 G2 X2.0046 Y-0.5301 I-2.0351 J-0.3113
N12675 G1 X2.0037 Y-0.5334
N12680 G2 X1.6391 Y-1.27 I-2.0015 J0.5322
N12685 G1 X1.6379 Y-1.2715
N12690 G2 X1.0135 Y-1.8087 I-1.6312 J1.2643
N12695 G1 X1.0072 Y-1.8123
N12700 G2 X0.9094 Y-1.8634 I-0.9568 J1.712
N12705 G1 X0.9042 Y-1.8659
N12710 G2 X0.7967 Y-1.9142 I-0.8383 J1.7208
N12715 G1 X0.7894 Y-1.9173
N12720 G2 X0.6848 Y-1.957 I-0.7389 J1.7885
N12725 G1 X0.6775 Y-1.9595
N12730 G2 X-0.5797 Y-1.9906 I-0.6774 J1.9523
N12735 G1 X-0.5862 Y-1.9887
N12740 G2 X-0.7469 Y-1.9342 I0.5543 J1.8958
N12745 G1 X-0.7521 Y-1.9322
N12750 G2 X-1.7802 Y-1.0629 I0.7487 J1.9281
N12755 G1 X-1.7817 Y-1.0603
N12760 G2 X-2.0345 Y0.3998 I1.7784 J1.0598
N12765 G1 X-2.0327 Y0.409
N12770 G2 X-2.0013 Y0.5421 I1.8305 J-0.3608
N12775 G1 X-1.9991 Y0.5502
N12780 G2 X-1.9578 Y0.6824 I1.9117 J-0.5248
N12785 G1 X-1.9556 Y0.6887
N12790 G2 X-1.4622 Y1.4702 I1.951 J-0.6853
N12795 G1 X-1.3117 Y1.6196
N12800 G2 X-1.2879 Y1.604 I0.0103 J-0.0103
N12805 G1 X-1.299 Y1.5759
N12810 G3 X-1.4166 Y1.2447 I4.7819 J-1.8851
N12815 G1 X-1.4349 Y1.1871
N12820 G3 X-1.5735 Y0.5507 I3.3527 J-1.0633
N12825 G1 X-1.5736 Y0.5494
N12830 G3 X-1.5848 Y0.3317 I1.549 J-0.1886
N12835 G1 X-1.5837 Y0.2708
N12840 G3 X-1.3679 Y-0.3406 I1.0282 J0.0191
N12845 G2 X-1.3433 Y-0.4194 I-0.0931 J-0.0723
N12850 G3 X-1.3133 Y-0.4962 I0.0992 J-0.0055
N12855 X-0.9363 Y-0.7361 I0.7719 J0.7968
N12860 G1 X-0.8221 Y-0.7796
N12865 G3 X-0.4267 Y-0.7303 I0.1512 J0.397
N12870 G1 X-0.4197 Y-0.7254
N12875 G3 X-0.2439 Y-0.4267 I-0.2409 J0.3429
N12880 G1 X-0.2282 Y-0.2783
N12885 X-0.221 Y-0.1941
N12890 G3 X-0.2085 Y0.3501 I-4.4833 J0.3758
N12895 G1 X-0.2106 Y0.4065
N12900 G3 X-0.2621 Y0.8547 I-2.9319 J-0.1098
N12905 G1 X-0.2631 Y0.8599
N12910 G3 X-0.3464 Y1.1419 I-1.5089 J-0.2923
N12915 G1 X-0.3552 Y1.1637
N12920 G3 X-0.5209 Y1.4429 I-0.9898 J-0.3987
N12925 G1 X-0.5307 Y1.4549
N12930 G2 X-0.5306 Y1.4836 I0.0174 J0.0143
N12935 G1 X-0.528 Y1.4866
N12940 G2 X-0.4926 Y1.4853 I0.0172 J-0.0145
N12945 G1 X-0.4866 Y1.477
N12950 G3 X-0.1749 Y1.4357 I0.1754 J0.1264
N12955 G1 X-0.1702 Y1.4395
N12960 G3 X-0.1235 Y1.7226 I-0.1364 J0.1679
N12965 G1 X-0.1664 Y1.7906
N12970 G2 X-0.162 Y1.8224 I0.0212 J0.0133
N12975 G1 X-0.0172 Y1.9542
N12980 G2 X0.0165 Y1.9541 I0.0168 J-0.0185
N12985 G1 X0.1657 Y1.8178
N12990 G2 X0.1697 Y1.7856 I-0.0169 J-0.0185
N12995 G1 X0.1353 Y1.7333
N13000 G3 X0.1846 Y1.4437 I0.1798 J-0.1183
N13005 G1 X0.1886 Y1.4407
N13010 G3 X0.4884 Y1.4811 I0.1297 J0.1702
N13015 G1 X0.4928 Y1.4868
N13020 G2 X0.5266 Y1.4877 I0.0172 J-0.0131
N13025 G1 X0.5294 Y1.4843
N13030 G2 X0.5298 Y1.4569 I-0.0165 J-0.014
N13035 G1 X0.5194 Y1.4437
N13040 G3 X0.2677 Y0.8911 I0.9951 J-0.7868
N13045 G1 X0.2529 Y0.812
N13050 G3 X0.2252 Y0.6049 I1.9436 J-0.3651
N13055 G1 X0.2224 Y0.5705
N13060 G3 X0.2134 Y-0.0662 I4.8255 J-0.3866
N13065 G1 X0.2179 Y-0.1519
N13070 X0.232 Y-0.3987
N13075 G3 X0.4284 Y-0.7354 I0.4288 J0.0245
N13080 G1 X0.4385 Y-0.7419
N13085 G3 X0.8299 Y-0.7798 I0.2325 J0.3612
N13090 G1 X0.95 Y-0.732
N13095 G3 X1.6513 Y0.4246 I-0.4152 J1.0427
N13100 G1 X1.6393 Y0.5425
N13105 G3 X1.5675 Y0.939 I-2.5905 J-0.2642
N13110 G1 X1.5471 Y1.0166
N13115 G3 X1.4556 Y1.326 I-5.0064 J-1.3132
N13120 G1 X1.4444 Y1.3598
N13125 G2 X1.4686 Y1.3725 I0.0131 J0.0043
N13130 G1 X1.5947 Y1.2058
N13135 G2 X1.9549 Y0.4184 I-1.5892 J-1.203
N13140 G1 X1.9563 Y0.4121
N13145 G2 X1.9753 Y0.3083 I-1.7707 J-0.3776
N13150 G1 X1.9767 Y0.299
N13155 G2 X1.9328 Y-0.511 I-1.9617 J-0.3001
N13160 G1 X1.932 Y-0.5144
N13165 G2 X1.5804 Y-1.2245 I-1.9298 J0.5131
N13170 G1 X1.5792 Y-1.2261
N13175 G2 X0.9774 Y-1.744 I-1.5725 J1.2188
N13180 G1 X0.971 Y-1.7475
N13185 G2 X0.8769 Y-1.7967 I-0.9204 J1.6469
N13190 G1 X0.8717 Y-1.7992
N13195 G2 X0.7684 Y-1.8457 I-0.8059 J1.6543
N13200 G1 X0.7611 Y-1.8487
N13205 G2 X0.6605 Y-1.8869 I-0.7107 J1.7203
N13210 G1 X0.6532 Y-1.8894
N13215 G2 X-0.5589 Y-1.9194 I-0.653 J1.8822
N13220 G1 X-0.5654 Y-1.9175
N13225 G2 X-0.72 Y-1.865 I0.5334 J1.8245
N13230 G1 X-0.7253 Y-1.863
N13235 G2 X-1.7165 Y-1.0249 I0.7219 J1.859
N13240 G1 X-1.718 Y-1.0224
N13245 G2 X-1.9617 Y0.3855 I1.7147 J1.0218
N13250 G1 X-1.9599 Y0.3947
N13255 G2 X-1.9298 Y0.5224 I1.7578 J-0.3465
N13260 G1 X-1.9275 Y0.5306
N13265 G2 X-1.8831 Y0.6712 I1.84 J-0.5051
N13270 G1 X-1.8804 Y0.6784
N13275 G2 X-1.5958 Y1.2045 I1.8737 J-0.6738
N13280 G1 X-1.4704 Y1.3706
N13285 G2 X-1.4462 Y1.3579 I0.011 J-0.0083
N13290 G1 X-1.4729 Y1.2769
N13295 X-1.5006 Y1.189
N13300 G3 X-1.6332 Y0.5832 I3.406 J-1.0625
N13305 G1 X-1.635 Y0.5686
N13310 G3 X-1.6474 Y0.4165 I1.6105 J-0.2079
N13315 G1 X-1.6501 Y0.3387
N13320 G3 X-1.3133 Y-0.4962 I1.1087 J-0.0381
N13325 G2 X-1.2832 Y-0.5633 I-0.069 J-0.0712
N13330 G3 X-1.2494 Y-0.6286 I0.087 J0.0037
N13335 X-0.9796 Y-0.7853 I0.7274 J0.942
N13340 G1 X-0.8696 Y-0.831
N13345 G3 X-0.3926 Y-0.7789 I0.1912 J0.4591
N13350 G1 X-0.3864 Y-0.7746
N13355 G3 X-0.1756 Y-0.3988 I-0.2864 J0.4077
N13360 G1 X-0.1571 Y-0.11
N13365 G3 X-0.1511 Y0.3562 I-4.5472 J0.2917
N13370 G1 X-0.1533 Y0.4126
N13375 G3 X-0.2026 Y0.8498 I-2.9725 J-0.1139
N13380 G1 X-0.2051 Y0.863
N13385 G3 X-0.2942 Y1.1664 I-1.5669 J-0.2955
N13390 G1 X-0.3032 Y1.1886
N13395 G3 X-0.3488 Y1.287 I-1.024 J-0.4149
N13400 G1 X-0.3587 Y1.3058
N13405 G2 X-0.3419 Y1.3311 I0.0153 J0.008
N13410 G1 X-0.3343 Y1.3304
N13415 G3 X-0.0648 Y1.738 I0.0229 J0.2777
N13420 G1 X-0.0877 Y1.7814
N13425 G2 X-0.0825 Y1.8114 I0.0221 J0.0117
N13430 G1 X-0.0174 Y1.8716
N13435 G2 X0.0165 I0.017 J-0.0184
N13440 G1 X0.0856 Y1.8077
N13445 G2 X0.091 Y1.7782 I-0.017 J-0.0184
N13450 G1 X0.0708 Y1.7374
N13455 G3 X0.1978 Y1.3675 I0.2465 J-0.1221
N13460 G1 X0.2004 Y1.3663
N13465 G3 X0.3298 Y1.3396 I0.1177 J0.244
N13470 G1 X0.3473 Y1.3404
N13475 G2 X0.363 Y1.315 I0.0007 J-0.0171
N13480 G1 X0.355 Y1.3006
N13485 G3 X0.2107 Y0.8996 I1.1641 J-0.6454
N13490 G1 X0.196 Y0.8207
N13495 G3 X0.1678 Y0.6095 I2.0005 J-0.3738
N13500 G1 X0.1651 Y0.5751
N13505 G3 X0.1516 Y0.0368 I4.8829 J-0.3912
N13510 G1 X0.164 Y-0.3738
N13515 G3 X0.3974 Y-0.7868 I0.5091 J0.0153
N13520 G1 X0.4046 Y-0.7914
N13525 G3 X0.8883 Y-0.8283 I0.276 J0.4287
N13530 G1 X1.0046 Y-0.7764
N13535 G3 X1.7067 Y0.4894 I-0.4908 J1.0998
N13540 G1 X1.6862 Y0.6367
N13545 G3 X1.611 Y1.0016 I-2.8406 J-0.3952
N13550 G1 X1.5919 Y1.0709
N13555 G2 X1.6139 Y1.0797 I0.0114 J0.0031
N13560 G1 X1.7055 Y0.9075
N13565 G2 X1.8861 Y0.4172 I-1.6975 J-0.9037
N13570 G1 X1.8879 Y0.4093
N13575 G2 X1.9086 Y0.2981 I-1.7024 J-0.3748
N13580 G1 X1.91 Y0.2889
N13585 G2 X1.8677 Y-0.4937 I-1.8951 J-0.2899
N13590 G1 X1.8668 Y-0.497
N13595 G2 X1.5271 Y-1.1832 I-1.8647 J0.4958
N13600 G1 X1.5259 Y-1.1848
N13605 G2 X0.9444 Y-1.6851 I-1.5192 J1.1775
N13610 G1 X0.9381 Y-1.6886
N13615 G2 X0.8473 Y-1.7361 I-0.8876 J1.5883
N13620 G1 X0.8421 Y-1.7386
N13625 G2 X0.7427 Y-1.7833 I-0.7764 J1.5936
N13630 G1 X0.7353 Y-1.7864
N13635 G2 X0.6384 Y-1.8232 I-0.6849 J1.6577
N13640 G1 X0.6311 Y-1.8257
N13645 G2 X-0.54 Y-1.8547 I-0.6309 J1.8184
N13650 G1 X-0.5465 Y-1.8528
N13655 G2 X-0.6956 Y-1.8021 I0.5145 J1.7598
N13660 G1 X-0.7008 Y-1.8001
N13665 G2 X-1.6586 Y-0.9903 I0.6974 J1.7961
N13670 G1 X-1.6601 Y-0.9878
N13675 G2 X-1.8955 Y0.3724 I1.6567 J0.9873
N13680 G1 X-1.8937 Y0.3816
N13685 G2 X-1.8647 Y0.5046 I1.6916 J-0.3335
N13690 G1 X-1.8625 Y0.5127
N13695 G2 X-1.816 Y0.6582 I1.775 J-0.4872
N13700 G1 X-1.8129 Y0.6666
N13705 G2 X-1.7093 Y0.9001 I1.8003 J-0.659
N13710 G1 X-1.6187 Y1.0724
N13715 G2 X-1.5968 Y1.0639 I0.0104 J-0.0055
N13720 G1 X-1.6028 Y1.0411
N13725 G3 X-1.6902 Y0.5905 I3.5082 J-0.9146
N13730 G1 X-1.696 Y0.5438
N13735 X-1.6992 Y0.5115
N13740 X-1.7074 Y0.4201
N13745 G3 X-1.2494 Y-0.6286 I1.1854 J-0.1067
N13750 G2 X-1.2121 Y-0.6927 I-0.0602 J-0.0779
N13755 G3 X-1.1715 Y-0.7548 I0.0866 J0.0123
N13760 X-1.0016 Y-0.8431 I0.6686 J1.0798
N13765 G1 X-0.907 Y-0.8835
N13770 G3 X-0.4155 Y-0.8618 I0.2232 J0.5227
N13775 G1 X-0.411 Y-0.8594
N13780 G3 X-0.1108 Y-0.3825 I-0.2691 J0.5023
N13785 G1 X-0.0948 Y-0.0238
N13790 G3 X-0.0938 Y0.3624 I-4.6095 J0.2055
N13795 G1 X-0.096 Y0.4187
N13800 G3 X-0.1442 Y0.8504 I-3.0117 J-0.1181
N13805 G1 X-0.1476 Y0.8689
N13810 G3 X-0.2397 Y1.1851 I-1.6244 J-0.3013
N13815 G1 X-0.2473 Y1.2039
N13820 X-0.2641 Y1.244
N13825 G2 X-0.2477 Y1.2774 I0.0226 J0.0096
N13830 G1 X-0.2268 Y1.2828
N13835 G3 X-0.0312 Y1.4223 I-0.0843 J0.3249
N13840 G1 X-0.0229 Y1.4354
N13845 X-0.0079 Y1.4625
N13850 G2 X0.0212 Y1.4629 I0.0146 J-0.0079
N13855 G1 X0.0296 Y1.4484
N13860 G3 X0.177 Y1.3137 I0.2878 J0.1669
N13865 G1 X0.1801 Y1.3122
N13870 G3 X0.2308 Y1.2936 I0.1368 J0.2942
N13875 G1 X0.2509 Y1.2881
N13880 G2 X0.2664 Y1.2547 I-0.0064 J-0.0232
N13885 G1 X0.2593 Y1.2394
N13890 G3 X0.1531 Y0.9055 I1.2744 J-0.5892
N13895 G1 X0.1386 Y0.8273
N13900 G3 X0.1105 Y0.6141 I2.0578 J-0.3804
N13905 G1 X0.1077 Y0.5797
N13910 G3 X0.0924 Y0.1144 I4.9403 J-0.3958
N13915 G1 X0.099 Y-0.3556
N13920 G3 X0.3662 Y-0.8374 I0.5827 J0.0082
N13925 G1 X0.3716 Y-0.8408
N13930 G3 X0.9388 Y-0.8766 I0.3156 J0.4903
N13935 G1 X1.0488 Y-0.8239
N13940 G3 X1.7495 Y0.6048 I-0.5538 J1.1578
N13945 G1 X1.7473 Y0.615
N13950 G2 X1.7688 Y0.6199 I0.0108 J0.0023
N13955 G1 X1.8129 Y0.4348
N13960 X1.8202 Y0.4027
N13965 G2 X1.8419 Y0.2879 I-1.6348 J-0.3683
N13970 G1 X1.8433 Y0.2787
N13975 G2 X1.8025 Y-0.4763 I-1.8284 J-0.2797
N13980 G1 X1.8016 Y-0.4797
N13985 G2 X1.4738 Y-1.1419 I-1.7995 J0.4785
N13990 G1 X1.4726 Y-1.1434
N13995 G2 X0.9115 Y-1.6262 I-1.4659 J1.1362
N14000 G1 X0.9052 Y-1.6298
N14005 G2 X0.8178 Y-1.6754 I-0.8547 J1.5293
N14010 G1 X0.8126 Y-1.678
N14015 G2 X0.7169 Y-1.721 I-0.7468 J1.533
N14020 G1 X0.7096 Y-1.724
N14025 G2 X0.6163 Y-1.7594 I-0.6592 J1.5955
N14030 G1 X0.609 Y-1.762
N14035 G2 X-0.5211 Y-1.79 I-0.6088 J1.7547
N14040 G1 X-0.5276 Y-1.7881
N14045 G2 X-0.6712 Y-1.7393 I0.4956 J1.6951
N14050 G1 X-0.6764 Y-1.7372
N14055 G2 X-1.6006 Y-0.9558 I0.673 J1.7332
N14060 G1 X-1.6021 Y-0.9533
N14065 G2 X-1.8293 Y0.3594 I1.5988 J0.9527
N14070 G1 X-1.8275 Y0.3686
N14075 G2 X-1.8112 Y0.4426 I1.6256 J-0.3204
N14080 G1 X-1.7657 Y0.6281
N14085 G2 X-1.7439 Y0.624 I0.0108 J-0.0026
N14090 G1 X-1.7612 Y0.4971
N14095 G3 X-1.1715 Y-0.7548 I1.2583 J-0.1721
N14100 G2 X-1.13 Y-0.8122 I-0.049 J-0.0791
N14105 G3 X-1.0864 Y-0.8679 I0.0828 J0.0199
N14110 G1 X-0.9867 Y-0.9194
N14115 G3 X-0.3423 Y-0.8874 I0.2946 J0.5699
N14120 G1 X-0.3363 Y-0.8835
N14125 G3 X-0.0462 Y-0.3661 I-0.3481 J0.5352
N14130 G1 X-0.0345 Y0.0511
N14135 G3 X-0.0363 Y0.3647 I-4.6698 J0.1306
N14140 G1 X-0.0403 Y0.4612
N14145 X-0.0474 Y0.5733
N14150 G3 X-0.1768 Y1.1866 I-2.1996 J-0.144
N14155 G1 X-0.1841 Y1.2064
N14160 G2 X-0.172 Y1.2372 I0.0235 J0.0086
N14165 G1 X-0.1322 Y1.2576
N14170 G3 X-0.0294 Y1.3334 I-0.1783 J0.3493
N14175 G1 X-0.0095 Y1.3538
N14180 G2 X0.0261 Y1.3542 I0.0179 J-0.0174
N14185 G1 X0.038 Y1.3423
N14190 G3 X0.1632 Y1.2551 I0.3109 J0.313
N14195 G1 X0.172 Y1.2511
N14200 G2 X0.1849 Y1.2196 I-0.0105 J-0.0227
N14205 G1 X0.1776 Y1.2001
N14210 G3 X0.0423 Y0.5134 I2.025 J-0.7556
N14215 G1 X0.0369 Y0.3439
N14220 G3 X0.0344 Y0.198 I5.0111 J-0.16
N14225 G1 X0.0329 Y-0.3341
N14230 G3 X0.3334 Y-0.8869 I0.6552 J-0.0018
N14235 G1 X0.3403 Y-0.8913
N14240 G3 X1.0182 Y-0.9108 I0.3551 J0.5515
N14245 G1 X1.1553 Y-0.8332
N14250 G3 X1.7787 Y-0.0536 I-0.6599 J1.1668
N14255 G1 X1.7845 Y-0.0346
N14260 G2 X1.8065 Y-0.0393 I0.0108 J-0.0033
N14265 G1 X1.783 Y-0.2252
N14270 G2 X1.7428 Y-0.4377 I-1.7615 J0.2233
N14275 G1 X1.7418 Y-0.4416
N14280 G2 X1.4205 Y-1.1006 I-1.7397 J0.4404
N14285 G1 X1.4193 Y-1.1021
N14290 G2 X0.8786 Y-1.5673 I-1.4126 J1.0949
N14295 G1 X0.8723 Y-1.5709
N14300 G2 X0.7882 Y-1.6148 I-0.8218 J1.4705
N14305 G1 X0.7831 Y-1.6173
N14310 G2 X0.6911 Y-1.6587 I-0.7173 J1.4724
N14315 G1 X0.6838 Y-1.6617
N14320 G2 X0.5942 Y-1.6957 I-0.6333 J1.5328
N14325 G1 X0.5869 Y-1.6982
N14330 G2 X-0.5021 Y-1.7252 I-0.5867 J1.691
N14335 G1 X-0.5086 Y-1.7233
N14340 G2 X-0.6468 Y-1.6764 I0.4767 J1.6304
N14345 G1 X-0.652 Y-1.6744
N14350 G2 X-1.5563 Y-0.898 I0.6486 J1.6704
N14355 G1 X-1.558 Y-0.8951
N14360 G2 X-1.7844 Y-0.2129 I1.5532 J0.8942
N14365 G1 X-1.8067 Y-0.0259
N14370 G2 X-1.7846 Y-0.0215 I0.0112 J0.0013
N14375 G1 X-1.7801 Y-0.0373
N14380 G3 X-1.1126 Y-0.8544 I1.2772 J0.3622
N14385 G1 X-1.0864 Y-0.8679
N14390 G2 X-1.0462 Y-0.9216 I-0.0352 J-0.0682
N14395 G3 X-1.0057 Y-0.975 I0.0742 J0.0142
N14400 X-0.2264 Y-0.8724 I0.3134 J0.63
N14405 G1 X-0.2235 Y-0.8697
N14410 G3 X-0.0236 Y-0.5667 I-0.4603 J0.5211
N14415 G1 X-0.018 Y-0.5498
N14420 G2 X0.0079 I0.013 J-0.0043
N14425 G1 X0.0118 Y-0.5612
N14430 G3 X0.0865 Y-0.7183 I0.6776 J0.2262
N14435 G1 X0.087 Y-0.719
N14440 G3 X1.0549 Y-0.9573 I0.6086 J0.3868
N14445 G1 X1.1921 Y-0.8785
N14450 G3 X1.649 Y-0.4562 I-0.6969 J1.2122
N14455 G1 X1.6584 Y-0.4424
N14460 G2 X1.6792 Y-0.4533 I0.0097 J-0.0067
N14465 G1 X1.6124 Y-0.6255
N14470 G2 X1.3884 Y-1.0312 I-1.6081 J0.6232
N14475 G1 X1.3869 Y-1.0333
N14480 G2 X0.8457 Y-1.5085 I-1.3802 J1.026
N14485 G1 X0.8394 Y-1.512
N14490 G2 X0.7587 Y-1.5542 I-0.7889 J1.4116
N14495 G1 X0.7535 Y-1.5567
N14500 G2 X0.6654 Y-1.5963 I-0.6877 J1.4116
N14505 G1 X0.6581 Y-1.5993
N14510 G2 X0.5721 Y-1.632 I-0.6077 J1.4709
N14515 G1 X0.5648 Y-1.6345
N14520 G2 X-0.4832 Y-1.6605 I-0.5646 J1.6273
N14525 G1 X-0.4897 Y-1.6586
N14530 G2 X-0.6224 Y-1.6135 I0.4577 J1.5655
N14535 G1 X-0.6276 Y-1.6115
N14540 G2 X-1.5084 Y-0.8458 I0.6242 J1.6075
N14545 G1 X-1.5103 Y-0.8423
N14550 G2 X-1.6149 Y-0.6192 I1.5005 J0.8393
N14555 G1 X-1.681 Y-0.447
N14560 G2 X-1.6603 Y-0.4362 I0.011 J0.0042
N14565 G1 X-1.6509 Y-0.4501
N14570 G3 X-1.1443 Y-0.9027 I1.1482 J0.7752
N14575 G1 X-1.0057 Y-0.975
N14580 G2 X-0.9472 Y-1.0316 I-0.06 J-0.1205
N14585 G3 X-0.8831 Y-1.0819 I0.0896 J0.0483
N14590 X-0.1819 Y-0.9097 I0.1908 J0.7369
N14595 G1 X-0.1787 Y-0.9068
N14600 G3 X-0.0304 Y-0.7225 I-0.503 J0.5566
N14605 G1 X-0.0202 Y-0.7046
N14610 G2 X0.0114 Y-0.7047 I0.0158 J-0.009
N14615 G1 X0.0177 Y-0.7157
N14620 G3 X1.0849 Y-1.0067 I0.678 J0.3841
N14625 G1 X1.2231 Y-0.927
N14630 G3 X1.4539 Y-0.7619 I-0.7236 J1.2551
N14635 G1 X1.4689 Y-0.7487
N14640 G2 X1.4869 Y-0.7644 I0.0079 J-0.0091
N14645 G1 X1.3876 Y-0.9149
N14650 X1.3682 Y-0.9436
N14655 X1.3461 Y-0.9748
N14660 G2 X0.8155 Y-1.4481 I-1.3394 J0.9676
N14665 G1 X0.8102 Y-1.4511
N14670 G2 X0.7261 Y-1.495 I-0.7784 J1.3867
N14675 G1 X0.722 Y-1.497
N14680 G2 X0.6396 Y-1.534 I-0.6561 J1.3519
N14685 G1 X0.6323 Y-1.537
N14690 G2 X0.55 Y-1.5683 I-0.5819 J1.4084
N14695 G1 X0.5427 Y-1.5708
N14700 G2 X-0.4643 Y-1.5957 I-0.5425 J1.5635
N14705 G1 X-0.4708 Y-1.5938
N14710 G2 X-0.598 Y-1.5506 I0.4388 J1.5008
N14715 G1 X-0.6032 Y-1.5486
N14720 G2 X-1.3888 Y-0.913 I0.5998 J1.5446
N14725 G1 X-1.4886 Y-0.7609
N14730 G2 X-1.4705 Y-0.7453 I0.0101 J0.0066
N14735 G1 X-1.4577 Y-0.7565
N14740 G3 X-1.1707 Y-0.9539 I0.9556 J1.0826
N14745 G1 X-1.0447 Y-1.0197
N14750 G3 X-0.8831 Y-1.0819 I0.3525 J0.6747
N14755 G2 X-0.8166 Y-1.1251 I-0.0313 J-0.1209
N14760 G3 X-0.7463 Y-1.1619 I0.0767 J0.0609
N14765 X-0.1374 Y-0.947 I0.0541 J0.817
N14770 G1 X-0.1337 Y-0.9436
N14775 G3 X-0.0358 Y-0.8352 I-0.5431 J0.5892
N14780 G1 X-0.0221 Y-0.8171
N14785 G2 X0.0139 Y-0.8172 I0.018 J-0.0135
N14790 G1 X0.0217 Y-0.8278
N14795 G3 X1.1284 Y-1.0502 I0.676 J0.4989
N14800 G1 X1.2357 Y-0.9862
N14805 G2 X1.2505 Y-1.0052 I0.0062 J-0.0105
N14810 G1 X1.1252 Y-1.1301
N14815 G2 X0.7929 Y-1.3833 I-1.1168 J1.1209
N14820 G1 X0.7868 Y-1.3868
N14825 G2 X0.6966 Y-1.4344 I-0.7551 J1.3225
N14830 G1 X0.6925 Y-1.4364
N14835 G2 X0.6167 Y-1.4704 I-0.6267 J1.2913
N14840 G1 X0.6109 Y-1.4729
N14845 G2 X0.5236 Y-1.506 I-0.5782 J1.3908
N14850 G1 X0.5175 Y-1.5081
N14855 G2 X-0.4453 Y-1.531 I-0.5173 J1.5009
N14860 G1 X-0.4518 Y-1.5291
N14865 G2 X-0.5845 Y-1.4834 I0.4199 J1.436
N14870 G1 X-0.5908 Y-1.481
N14875 G2 X-1.1284 Y-1.1269 I0.5865 J1.4758
N14880 G1 X-1.2535 Y-1.0015
N14885 G2 X-1.2389 Y-0.9822 I0.0086 J0.0086
N14890 G1 X-1.2273 Y-0.9888
N14895 X-1.0729 Y-1.0699
N14900 G3 X-0.7463 Y-1.1619 I0.3807 J0.7249
N14905 G2 X-0.6749 Y-1.1923 I-0.0078 J-0.1176
N14910 G3 X-0.601 Y-1.2165 I0.0639 J0.0703
N14915 X-0.092 Y-0.9834 I-0.0913 J0.8719
N14920 G1 X-0.0886 Y-0.9803
N14925 G3 X-0.0507 Y-0.9424 I-0.5882 J0.6258
N14930 G1 X-0.0224 Y-0.9122
N14935 G2 X0.014 I0.0182 J-0.0171
N14940 G1 X0.0435 Y-0.9436
N14945 G3 X0.9086 Y-1.2014 I0.6541 J0.6144
N14950 G1 X0.9263 Y-1.1971
N14955 G2 X0.9355 Y-1.2196 I0.0029 J-0.0119
N14960 G1 X0.7881 Y-1.308
N14965 X0.7606 Y-1.3241
N14970 G2 X0.669 Y-1.3728 I-0.7289 J1.2598
N14975 G1 X0.6654 Y-1.3746
N14980 G2 X0.5876 Y-1.4095 I-0.6097 J1.2518
N14985 G1 X0.5824 Y-1.4117
N14990 G2 X0.5016 Y-1.4423 I-0.5497 J1.3298
N14995 G1 X0.4955 Y-1.4444
N15000 G2 X-0.4264 Y-1.4663 I-0.4953 J1.4371
N15005 G1 X-0.4329 Y-1.4644
N15010 G2 X-0.5683 Y-1.4173 I0.4009 J1.3713
N15015 G1 X-0.5756 Y-1.4143
N15020 G2 X-0.8044 Y-1.2982 I0.5691 J1.4053
N15025 G1 X-0.9516 Y-1.2071
N15030 G2 X-0.942 Y-1.1851 I0.0064 J0.0103
N15035 G1 X-0.9291 Y-1.1887
N15040 G3 X-0.601 Y-1.2165 I0.2368 J0.8441
N15045 G2 X-0.5171 Y-1.2359 I0.0138 J-0.1317
N15050 G3 X-0.4319 Y-1.2478 I0.056 J0.0897
N15055 X-0.0794 Y-1.0573 I-0.2609 J0.9042
N15060 G1 X-0.0209 Y-1.0071
N15065 G2 X0.0115 Y-1.007 I0.0163 J-0.019
N15070 G1 X0.0762 Y-1.0618
N15075 G3 X0.6161 Y-1.2864 I0.6211 J0.732
N15080 G1 X0.6365 Y-1.2881
N15085 G2 X0.64 Y-1.3164 I-0.0012 J-0.0145
N15090 G1 X0.4691 Y-1.375
N15095 G2 X-0.4056 Y-1.395 I-0.469 J1.3677
N15100 G1 X-0.4121 Y-1.3931
N15105 G2 X-0.4813 Y-1.3709 I0.3802 J1.3003
N15110 G1 X-0.6495 Y-1.3117
N15115 G2 X-0.6457 Y-1.2836 I0.0048 J0.0137
N15120 G1 X-0.6312 Y-1.2827
N15125 G3 X-0.4319 Y-1.2478 I-0.0616 J0.9391
N15130 G2 X-0.3475 Y-1.253 I0.0349 J-0.1209
N15135 G3 X-0.263 Y-1.2514 I0.0405 J0.0946
N15140 X-0.1012 Y-1.1553 I-0.4315 J0.911
N15145 G1 X-0.0191 Y-1.0955
N15150 G2 X0.0103 I0.0147 J-0.0202
N15155 G1 X0.0957 Y-1.1576
N15160 G3 X0.368 Y-1.2987 I0.6004 J0.8257
N15165 G1 X0.3879 Y-1.3054
N15170 G2 X0.3853 Y-1.335 I-0.0049 J-0.0145
N15175 G1 X0.2149 Y-1.362
N15180 G2 X-0.2236 Y-1.3606 I-0.2147 J1.3534
N15185 G1 X-0.3929 Y-1.3325
N15190 G2 X-0.3951 Y-1.303 I0.0025 J0.015
N15195 G1 X-0.3808 Y-1.2984
N15200 G3 X-0.263 Y-1.2514 I-0.3136 J0.958
N15205 G2 X-0.1938 Y-1.2547 I0.0315 J-0.0664
N15210 G3 X-0.1245 Y-1.2543 I0.0343 J0.0574
N15215 G1 X-0.0174 Y-1.1886
N15220 G2 X0.0088 Y-1.1887 I0.0131 J-0.0213
N15225 G1 X0.1426 Y-1.2711
N15230 G2 X0.1335 Y-1.303 I-0.009 J-0.0147
N15235 G1 X-0.1414 Y-1.3021
N15240 G2 X-0.1503 Y-1.2701 I0.0001 J0.0173
N15245 G1 X-0.1245 Y-1.2543
N15250 X-0.1138 Y-1.2478
N15255 X-0.1114 Y-1.2463 Z-0.0391
N15260 X-0.1092 Y-1.2449 Z-0.0381
N15265 X-0.1073 Y-1.2435 Z-0.0367
N15270 X-0.1057 Y-1.2424 Z-0.0347
N15275 X-0.1045 Y-1.2414 Z-0.0323
N15280 X-0.1039 Y-1.2407 Z-0.0297
N15285 X-0.1037 Y-1.2404 Z-0.0269
N15290 Y-1.2403 Z-0.0258
N15295 G0 Z0.1969
N15300 G1 X-0.0467 Y0.9499 F140.
N15305 G0 Z0.0135
N15310 G1 Z-0.0258 F13.123
N15315 X-0.0466 Y0.95 Z-0.0269 F39.37
N15320 X-0.0465 Y0.9503 Z-0.0297
N15325 Y0.9513 Z-0.0323
N15330 X-0.0466 Y0.9528 Z-0.0347
N15335 X-0.047 Y0.9547 Z-0.0367
N15340 X-0.0474 Y0.9571 Z-0.0381
N15345 X-0.048 Y0.9596 Z-0.0391
N15350 X-0.0487 Y0.9623 Z-0.0394
N15355 X-0.0518 Y0.9744
N15360 X-0.0618 Y1.0133
N15365 X-0.0725 Y1.052
N15370 X-0.1086 Y1.1781
N15375 G2 X-0.099 Y1.2054 I0.024 J0.0069
N15380 G1 X-0.0046 Y1.2721
N15385 G2 X0.0243 I0.0144 J-0.0204
N15390 G1 X0.0994 Y1.2187
N15395 G2 X0.109 Y1.1913 I-0.0145 J-0.0204
N15400 G1 X0.072 Y1.0642
N15405 G3 X0.0136 Y0.8075 I2.1224 J-0.6178
N15410 G1 X0.0098 Y0.7848
N15415 G2 X-0.0131 Y0.7847 I-0.0115 J0.0019
N15420 G1 X-0.0167 Y0.8057
N15425 G3 X-0.0518 Y0.9744 I-2.2265 J-0.3755
N15430 G2 X-0.0375 Y1.0431 I0.0785 J0.0195
N15435 G3 X-0.0211 Y1.1113 I-0.0685 J0.0525
N15440 G1 X-0.0287 Y1.1521
N15445 G2 X-0.0253 Y1.1699 I0.0246 J0.0046
N15450 G1 X-0.0169 Y1.1834
N15455 G2 X0.0189 Y1.1905 I0.0212 J-0.0132
N15460 G1 X0.0242 Y1.1867
N15465 G2 X0.0337 Y1.1594 I-0.0145 J-0.0203
N15470 G1 X0.0125 Y1.086
N15475 G2 X-0.0167 Y1.0874 I-0.0144 J0.0042
N15480 G1 X-0.0211 Y1.1113
N15485 X-0.0234 Y1.1236
N15490 X-0.024 Y1.1264 Z-0.0391
N15495 X-0.0245 Y1.1289 Z-0.0381
N15500 X-0.0251 Y1.1312 Z-0.0367
N15505 X-0.0256 Y1.1332 Z-0.0347
N15510 X-0.0261 Y1.1346 Z-0.0323
N15515 X-0.0265 Y1.1355 Z-0.0297
N15520 X-0.0268 Y1.1357 Z-0.0269
N15525 Z-0.0258
N15530 G0 Z0.5906

N15535 M5
N15540 G53 G0 Z0.
N15545 G53 G0 X0. Y0.
N15550 M30

%
